; generated by Slic3r 1.2.9 on 2020-05-03 at 13:45:57

; external perimeters extrusion width = 0.40mm
; perimeters extrusion width = 0.62mm
; infill extrusion width = 0.33mm
; solid infill extrusion width = 0.62mm
; top infill extrusion width = 0.20mm

M106 S256; Turn on fan to 100% power
M104 S140; turn on extruder temperature at S value
M140 S60; turn on bed temperature at S value
G28; home all axes
M84; disable motors
G1 Z15 F15000; have Z move to 20mm at 15000 mm/min
M190 S55; turn on bed temperature at S value and wait
M140 S55; turn on bed temperature at S value (printing temperature)
M109 S200; turn on extruder temperature at S value and wait (printing temperature)
M104 S200; turn on extruder temperature at S value
G1 Z0 F12000; move Z back to home
G21 ; set units to millimeters
G90 ; use absolute coordinates
M82 ; use absolute distances for extrusion
G92 E0
M106 S255
;Layer change
G1 E-6.00000 F1800.00000
G92 E0
G1 Z0.300 F9000.000
G1 X25.619 Y49.561 F9000.000
G1 E6.00000 F1800.00000
G1 X26.403 Y49.405 E6.03934 F600.000
G1 X79.470 Y47.904 E8.65210
G1 X169.470 Y47.904 E13.08146
G1 X170.780 Y48.296 E13.14873
G1 X171.659 Y49.342 E13.21601 F600.000
G1 X171.856 Y50.290 E13.26364
G1 X171.856 Y100.790 E15.74900
G1 X171.464 Y102.100 E15.81627
G1 X170.418 Y102.979 E15.88355
G1 X169.470 Y103.176 E15.93118
G1 X79.470 Y103.176 E20.36054
G1 X24.405 Y101.675 E23.07157
G1 X23.106 Y101.248 E23.13885
G1 X22.256 Y100.178 E23.20612
G1 X22.084 Y99.290 E23.25061
G1 X22.084 Y97.640 E23.33182
G1 X24.087 Y51.686 E25.59559
G1 X24.535 Y50.395 E25.66287
G1 X25.571 Y49.598 E25.72719
G1 E19.72719 F1800.00000
G92 E0
G1 X113.088 Y99.408 F9000.000
G1 E6.00000 F1800.00000
G1 X106.548 Y99.408 E6.32189 F600.000
G1 X105.444 Y99.284 E6.37653
G1 X104.470 Y98.943 E6.42733
G1 X103.596 Y98.394 E6.47813
G1 X102.866 Y97.664 E6.52893
G1 X102.317 Y96.790 E6.57973
G1 X101.976 Y95.816 E6.63053
G1 X101.852 Y94.712 E6.68517
G1 X101.852 Y56.368 E8.57231
G1 X101.976 Y55.264 E8.62695
G1 X102.317 Y54.290 E8.67775
G1 X102.866 Y53.416 E8.72855
G1 X103.596 Y52.686 E8.77935
G1 X104.470 Y52.137 E8.83015
G1 X105.444 Y51.796 E8.88095
G1 X106.548 Y51.672 E8.93559
G1 X113.088 Y51.672 E9.25748
G1 X113.088 Y52.058 E9.27649
G1 X106.392 Y52.058 E9.60603
G1 X105.526 Y52.156 E9.64892
G1 X104.630 Y52.469 E9.69565
G1 X103.826 Y52.975 E9.74239
G1 X103.155 Y53.646 E9.78912
G1 X102.649 Y54.450 E9.83585
G1 X102.336 Y55.346 E9.88259
G1 X102.238 Y56.212 E9.92548
G1 X102.238 Y94.868 E11.82790
G1 X102.336 Y95.734 E11.87079
G1 X102.649 Y96.630 E11.91753
G1 X103.155 Y97.434 E11.96426
G1 X103.826 Y98.105 E12.01099
G1 X104.630 Y98.611 E12.05773
G1 X105.526 Y98.924 E12.10446
G1 X106.392 Y99.022 E12.14736
G1 X113.088 Y99.022 E12.47689
G1 X113.088 Y99.348 E12.49294
G1 X113.474 Y99.794 F9000.000
G1 X106.526 Y99.794 E12.83488 F600.000
G1 X105.358 Y99.662 E12.89273
G1 X104.302 Y99.293 E12.94780
G1 X103.354 Y98.697 E13.00288
G1 X102.563 Y97.906 E13.05796
G1 X101.967 Y96.958 E13.11303
G1 X101.598 Y95.902 E13.16811
G1 X101.466 Y94.734 E13.22595
G1 X101.466 Y56.346 E15.11522
G1 X101.598 Y55.178 E15.17307
G1 X101.967 Y54.122 E15.22815
G1 X102.563 Y53.174 E15.28322
G1 X103.354 Y52.383 E15.33830
G1 X104.302 Y51.787 E15.39337
G1 X105.358 Y51.418 E15.44845
G1 X106.526 Y51.286 E15.50629
G1 X113.474 Y51.286 E15.84823
G1 X113.474 Y52.444 E15.90520
G1 X106.414 Y52.444 E16.25264
G1 X105.613 Y52.534 E16.29233
G1 X104.798 Y52.819 E16.33479
G1 X104.068 Y53.278 E16.37725
G1 X103.458 Y53.888 E16.41970
G1 X102.999 Y54.618 E16.46216
G1 X102.714 Y55.433 E16.50462
G1 X102.624 Y56.234 E16.54431
G1 X102.624 Y94.846 E18.44459
G1 X102.714 Y95.647 E18.48428
G1 X102.999 Y96.462 E18.52674
G1 X103.458 Y97.192 E18.56920
G1 X104.068 Y97.802 E18.61165
G1 X104.798 Y98.261 E18.65411
G1 X105.613 Y98.546 E18.69657
G1 X106.414 Y98.636 E18.73626
G1 X113.474 Y98.636 E19.08370
G1 X113.474 Y99.734 E19.13771
G1 X113.859 Y99.901 F9000.000
G1 X168.859 Y99.901 E21.84454 F600.000
G1 X168.859 Y100.179 E21.85826
G1 X106.504 Y100.179 E24.92707
G1 X105.272 Y100.041 E24.98812
G1 X104.133 Y99.642 E25.04748
G1 X103.112 Y99.001 E25.10683
G1 X102.259 Y98.148 E25.16618
G1 X101.618 Y97.127 E25.22553
G1 X101.219 Y95.988 E25.28489
G1 X101.081 Y94.756 E25.34593
G1 X101.081 Y56.324 E27.23734
G1 X101.219 Y55.092 E27.29839
G1 X101.618 Y53.953 E27.35774
G1 X102.259 Y52.932 E27.41709
G1 X103.112 Y52.079 E27.47645
G1 X104.133 Y51.438 E27.53580
G1 X105.272 Y51.039 E27.59515
G1 X106.504 Y50.901 E27.65620
G1 X168.859 Y50.901 E30.72501
G1 X168.859 Y51.179 E30.73873
G1 X113.859 Y51.179 E33.44556
G1 X113.859 Y52.829 E33.52676
G1 X106.436 Y52.829 E33.89212
G1 X105.699 Y52.912 E33.92860
G1 X104.967 Y53.169 E33.96679
G1 X104.310 Y53.581 E34.00497
G1 X103.761 Y54.130 E34.04315
G1 X103.349 Y54.787 E34.08132
G1 X103.092 Y55.519 E34.11951
G1 X103.009 Y56.256 E34.15599
G1 X103.009 Y94.824 E36.05415
G1 X103.092 Y95.561 E36.09063
G1 X103.349 Y96.293 E36.12881
G1 X103.761 Y96.950 E36.16699
G1 X104.310 Y97.499 E36.20517
G1 X104.967 Y97.911 E36.24335
G1 X105.699 Y98.168 E36.28153
G1 X106.436 Y98.251 E36.31802
G1 X113.859 Y98.251 E36.68338
G1 X113.859 Y99.841 E36.76163
G1 X114.245 Y99.515 F9000.000
G1 X169.245 Y99.515 E39.46846 F600.000
G1 X169.245 Y100.565 E39.52013
G1 X106.483 Y100.565 E42.60899
G1 X105.185 Y100.419 E42.67324
G1 X103.965 Y99.992 E42.73687
G1 X102.870 Y99.304 E42.80050
G1 X101.956 Y98.390 E42.86413
G1 X101.268 Y97.295 E42.92776
G1 X100.841 Y96.075 E42.99139
G1 X100.695 Y94.777 E43.05564
G1 X100.695 Y56.303 E44.94918
G1 X100.841 Y55.005 E45.01343
G1 X101.268 Y53.785 E45.07706
G1 X101.956 Y52.690 E45.14069
G1 X102.870 Y51.776 E45.20432
G1 X103.965 Y51.088 E45.26794
G1 X105.185 Y50.661 E45.33157
G1 X106.483 Y50.515 E45.39583
G1 X169.245 Y50.515 E48.48468
G1 X169.245 Y51.565 E48.53636
G1 X114.245 Y51.565 E51.24319
G1 X114.245 Y53.215 E51.32439
G1 X106.457 Y53.215 E51.70766
G1 X105.785 Y53.291 E51.74094
G1 X105.135 Y53.518 E51.77485
G1 X104.552 Y53.885 E51.80875
G1 X104.065 Y54.372 E51.84265
G1 X103.698 Y54.955 E51.87656
G1 X103.471 Y55.605 E51.91046
G1 X103.395 Y56.277 E51.94374
G1 X103.395 Y94.803 E53.83976
G1 X103.471 Y95.475 E53.87304
G1 X103.698 Y96.125 E53.90695
G1 X104.065 Y96.708 E53.94085
G1 X104.552 Y97.195 E53.97476
G1 X105.135 Y97.562 E54.00866
G1 X105.785 Y97.789 E54.04256
G1 X106.457 Y97.865 E54.07584
G1 X114.245 Y97.865 E54.45911
G1 X114.245 Y99.455 E54.53737
G1 X114.245 Y99.915 F9000.000
G1 E48.53737 F1800.00000
G92 E0
G1 X80.852 Y99.408 F9000.000
G1 E6.00000 F1800.00000
G1 X80.852 Y99.022 E6.01901 F600.000
G1 X92.548 Y99.022 E6.59462
G1 X93.414 Y98.924 E6.63751
G1 X94.310 Y98.611 E6.68425
G1 X95.114 Y98.105 E6.73098
G1 X95.785 Y97.434 E6.77771
G1 X96.291 Y96.630 E6.82444
G1 X96.604 Y95.734 E6.87118
G1 X96.702 Y94.868 E6.91407
G1 X96.702 Y56.212 E8.81649
G1 X96.604 Y55.346 E8.85938
G1 X96.291 Y54.450 E8.90612
G1 X95.785 Y53.646 E8.95285
G1 X95.114 Y52.975 E8.99959
G1 X94.310 Y52.469 E9.04632
G1 X93.414 Y52.156 E9.09305
G1 X92.548 Y52.058 E9.13595
G1 X80.852 Y52.058 E9.71155
G1 X80.852 Y51.672 E9.73056
G1 X92.396 Y51.672 E10.29871
G1 X93.496 Y51.796 E10.35317
G1 X94.470 Y52.137 E10.40397
G1 X95.344 Y52.686 E10.45477
G1 X96.062 Y53.405 E10.50478
G1 X96.624 Y54.292 E10.55645
G1 X96.964 Y55.264 E10.60714
G1 X97.088 Y56.368 E10.66178
G1 X97.088 Y94.712 E12.54893
G1 X96.964 Y95.816 E12.60357
G1 X96.623 Y96.790 E12.65437
G1 X96.074 Y97.664 E12.70516
G1 X95.344 Y98.394 E12.75597
G1 X94.470 Y98.943 E12.80676
G1 X93.496 Y99.284 E12.85756
G1 X92.392 Y99.408 E12.91220
G1 X80.912 Y99.408 E13.47722
G1 X80.466 Y99.794 F9000.000
G1 X80.466 Y98.636 E13.53419 F600.000
G1 X92.526 Y98.636 E14.12771
G1 X93.327 Y98.546 E14.16739
G1 X94.142 Y98.261 E14.20985
G1 X94.872 Y97.802 E14.25231
G1 X95.482 Y97.192 E14.29477
G1 X95.941 Y96.462 E14.33722
G1 X96.226 Y95.647 E14.37968
G1 X96.316 Y94.846 E14.41937
G1 X96.316 Y56.234 E16.31966
G1 X96.226 Y55.433 E16.35934
G1 X95.941 Y54.618 E16.40180
G1 X95.482 Y53.888 E16.44426
G1 X94.872 Y53.278 E16.48672
G1 X94.142 Y52.819 E16.52917
G1 X93.327 Y52.534 E16.57163
G1 X92.526 Y52.444 E16.61132
G1 X80.466 Y52.444 E17.20484
G1 X80.466 Y51.286 E17.26180
G1 X92.418 Y51.287 E17.84999
G1 X93.582 Y51.418 E17.90766
G1 X94.638 Y51.787 E17.96274
G1 X95.586 Y52.383 E18.01781
G1 X96.365 Y53.162 E18.07207
G1 X96.973 Y54.123 E18.12802
G1 X97.342 Y55.178 E18.18302
G1 X97.474 Y56.346 E18.24086
G1 X97.474 Y94.734 E20.13014
G1 X97.342 Y95.902 E20.18798
G1 X96.973 Y96.958 E20.24306
G1 X96.377 Y97.906 E20.29813
G1 X95.586 Y98.697 E20.35321
G1 X94.638 Y99.293 E20.40828
G1 X93.582 Y99.662 E20.46336
G1 X92.414 Y99.794 E20.52121
G1 X80.526 Y99.794 E21.10627
G1 X80.081 Y98.679 F9000.000
G1 X25.081 Y98.679 E23.81309 F600.000
G1 X25.081 Y98.251 E23.83420
G1 X92.504 Y98.251 E27.15246
G1 X93.241 Y98.168 E27.18894
G1 X93.973 Y97.911 E27.22712
G1 X94.630 Y97.499 E27.26530
G1 X95.179 Y96.950 E27.30348
G1 X95.591 Y96.293 E27.34166
G1 X95.848 Y95.561 E27.37984
G1 X95.931 Y94.824 E27.41633
G1 X95.931 Y56.256 E29.31448
G1 X95.848 Y55.519 E29.35097
G1 X95.591 Y54.787 E29.38915
G1 X95.179 Y54.130 E29.42733
G1 X94.630 Y53.581 E29.46551
G1 X93.973 Y53.169 E29.50369
G1 X93.241 Y52.912 E29.54187
G1 X92.504 Y52.829 E29.57836
G1 X27.081 Y52.829 E32.79819
G1 X27.081 Y52.401 E32.81929
G1 X80.081 Y52.401 E35.42769
G1 X80.081 Y50.901 E35.50151
G1 X92.439 Y50.901 E36.10974
G1 X93.668 Y51.039 E36.17061
G1 X94.807 Y51.438 E36.22996
G1 X95.828 Y52.079 E36.28932
G1 X96.668 Y52.920 E36.34782
G1 X97.322 Y53.954 E36.40804
G1 X97.721 Y55.092 E36.46735
G1 X97.859 Y56.324 E36.52840
G1 X97.859 Y94.756 E38.41981
G1 X97.721 Y95.988 E38.48086
G1 X97.322 Y97.127 E38.54021
G1 X96.681 Y98.148 E38.59956
G1 X95.828 Y99.001 E38.65891
G1 X94.807 Y99.642 E38.71826
G1 X93.668 Y100.041 E38.77762
G1 X92.436 Y100.179 E38.83867
G1 X80.081 Y100.179 E39.44672
G1 X80.081 Y98.739 E39.51759
G1 X79.695 Y99.065 F9000.000
G1 X24.695 Y99.065 E42.22442 F600.000
G1 X24.695 Y97.865 E42.28348
G1 X92.483 Y97.865 E45.61965
G1 X93.155 Y97.789 E45.65293
G1 X93.805 Y97.562 E45.68684
G1 X94.388 Y97.195 E45.72074
G1 X94.875 Y96.708 E45.75464
G1 X95.242 Y96.125 E45.78855
G1 X95.469 Y95.475 E45.82245
G1 X95.545 Y94.803 E45.85573
G1 X95.545 Y56.277 E47.75176
G1 X95.469 Y55.605 E47.78504
G1 X95.242 Y54.955 E47.81894
G1 X94.875 Y54.372 E47.85285
G1 X94.388 Y53.885 E47.88675
G1 X93.805 Y53.518 E47.92065
G1 X93.155 Y53.291 E47.95456
G1 X92.483 Y53.215 E47.98784
G1 X26.695 Y53.215 E51.22558
G1 X26.695 Y52.015 E51.28464
G1 X79.695 Y52.015 E53.89304
G1 X79.695 Y50.515 E53.96686
G1 X92.461 Y50.515 E54.59514
G1 X93.755 Y50.661 E54.65921
G1 X94.975 Y51.088 E54.72284
G1 X96.070 Y51.776 E54.78647
G1 X96.971 Y52.678 E54.84923
G1 X97.672 Y53.785 E54.91372
G1 X98.099 Y55.005 E54.97734
G1 X98.245 Y56.303 E55.04159
G1 X98.245 Y94.777 E56.93513
G1 X98.099 Y96.075 E56.99938
G1 X97.672 Y97.295 E57.06301
G1 X96.984 Y98.390 E57.12664
G1 X96.070 Y99.304 E57.19027
G1 X94.975 Y99.992 E57.25389
G1 X93.755 Y100.419 E57.31753
G1 X92.457 Y100.565 E57.38178
G1 X79.695 Y100.565 E58.00988
G1 X79.695 Y99.125 E58.08075
G1 X79.695 Y98.665 F9000.000
G1 X80.273 Y98.465 F9000.000
G1 X25.273 Y98.465 E60.78758 F600.000
G1 E54.78758 F1800.00000
G92 E0
G1 X27.273 Y52.615 F9000.000
G1 E6.00000 F1800.00000
G1 X80.273 Y52.615 E8.60840 F600.000
M104 S205 ; set temperature
M140 S55 ; wait for bed temperature to be reached
;Layer change
G1 E2.60840 F1800.00000
G92 E0
G1 Z0.520 F9000.000
G1 X113.237 Y98.613 F9000.000
G1 E6.00000 F1800.00000
G1 X113.237 Y99.557 E6.05045 F3000.000
G1 X106.539 Y99.557 E6.40850
G1 X105.411 Y99.430 E6.46919
G1 X104.405 Y99.078 E6.52616
G1 X103.503 Y98.511 E6.58313
G1 X102.749 Y97.757 E6.64011
G1 X102.182 Y96.855 E6.69708
G1 X101.833 Y95.857 E6.75358
G1 X101.703 Y94.720 E6.81479
G1 X101.703 Y56.359 E8.86553
G1 X101.830 Y55.231 E8.92623
G1 X102.182 Y54.225 E8.98320
G1 X102.749 Y53.323 E9.04017
G1 X103.503 Y52.569 E9.09714
G1 X104.405 Y52.002 E9.15411
G1 X105.411 Y51.650 E9.21109
G1 X106.539 Y51.523 E9.27178
G1 X113.237 Y51.523 E9.62983
G1 X113.237 Y52.467 E9.68028
G1 X106.401 Y52.467 E10.04573
G1 X105.618 Y52.555 E10.08787
G1 X104.808 Y52.838 E10.13373
G1 X104.081 Y53.295 E10.17959
G1 X103.475 Y53.901 E10.22546
G1 X103.018 Y54.628 E10.27131
G1 X102.735 Y55.438 E10.31718
G1 X102.647 Y56.221 E10.35932
G1 X102.647 Y94.859 E12.42492
G1 X102.735 Y95.642 E12.46706
G1 X103.018 Y96.452 E12.51292
G1 X103.475 Y97.179 E12.55878
G1 X104.081 Y97.785 E12.60465
G1 X104.808 Y98.242 E12.65050
G1 X105.618 Y98.525 E12.69637
G1 X106.401 Y98.613 E12.73851
G1 X113.177 Y98.613 E13.10075
G1 X113.808 Y98.042 F9000.000
G1 X113.808 Y100.128 E13.21227 F3000.000
G1 X106.507 Y100.128 E13.60257
G1 X105.283 Y99.990 E13.66842
G1 X104.156 Y99.596 E13.73228
G1 X103.144 Y98.960 E13.79613
G1 X102.300 Y98.116 E13.85998
G1 X101.664 Y97.104 E13.92383
G1 X101.273 Y95.986 E13.98719
G1 X101.132 Y94.752 E14.05355
G1 X101.132 Y56.327 E16.10776
G1 X101.270 Y55.103 E16.17361
G1 X101.664 Y53.976 E16.23746
G1 X102.300 Y52.964 E16.30131
G1 X103.144 Y52.120 E16.36517
G1 X104.156 Y51.484 E16.42902
G1 X105.283 Y51.090 E16.49287
G1 X106.507 Y50.952 E16.55872
G1 X113.808 Y50.952 E16.94902
G1 X113.808 Y53.038 E17.06054
G1 X106.433 Y53.038 E17.45482
G1 X105.745 Y53.115 E17.49180
G1 X105.057 Y53.356 E17.53078
G1 X104.440 Y53.744 E17.56976
G1 X103.924 Y54.260 E17.60874
G1 X103.536 Y54.877 E17.64772
G1 X103.295 Y55.565 E17.68670
G1 X103.218 Y56.253 E17.72368
G1 X103.218 Y94.827 E19.78586
G1 X103.295 Y95.515 E19.82284
G1 X103.536 Y96.203 E19.86182
G1 X103.924 Y96.820 E19.90080
G1 X104.440 Y97.336 E19.93978
G1 X105.057 Y97.724 E19.97876
G1 X105.745 Y97.965 E20.01775
G1 X106.433 Y98.042 E20.05473
G1 X113.748 Y98.042 E20.44579
G1 X114.270 Y99.490 F9000.000
G1 X169.270 Y99.490 E22.26180 F1800.000
G1 X169.270 Y100.590 E22.29812
G1 X106.481 Y100.590 E24.37129
G1 X105.180 Y100.443 E24.41454
G1 X103.954 Y100.014 E24.45741
G1 X102.855 Y99.324 E24.50029
G1 X101.936 Y98.405 E24.54316
G1 X101.246 Y97.306 E24.58604
G1 X100.820 Y96.089 E24.62859
G1 X100.670 Y94.779 E24.67216
G1 X100.670 Y56.301 E25.94261
G1 X100.817 Y55.000 E25.98586
G1 X101.246 Y53.774 E26.02873
G1 X101.936 Y52.675 E26.07161
G1 X102.855 Y51.756 E26.11448
G1 X103.954 Y51.066 E26.15736
G1 X105.180 Y50.637 E26.20023
G1 X106.481 Y50.490 E26.24348
G1 X169.270 Y50.490 E28.31665
G1 X169.270 Y51.590 E28.35297
G1 X114.270 Y51.590 E30.16898
G1 X114.270 Y53.500 E30.23204
G1 X106.459 Y53.500 E30.48995
G1 X105.849 Y53.569 E30.51022
G1 X105.259 Y53.775 E30.53086
G1 X104.730 Y54.108 E30.55150
G1 X104.288 Y54.550 E30.57213
G1 X103.955 Y55.079 E30.59277
G1 X103.749 Y55.669 E30.61341
G1 X103.680 Y56.279 E30.63367
G1 X103.680 Y94.801 E31.90562
G1 X103.749 Y95.411 E31.92588
G1 X103.955 Y96.001 E31.94652
G1 X104.288 Y96.530 E31.96716
G1 X104.730 Y96.972 E31.98780
G1 X105.259 Y97.305 E32.00843
G1 X105.849 Y97.511 E32.02907
G1 X106.459 Y97.580 E32.04934
G1 X114.270 Y97.580 E32.30725
G1 X114.270 Y99.430 E32.36834
G1 X114.270 Y99.890 F9000.000
G1 X114.039 Y100.040 F9000.000
G1 X169.039 Y100.040 E38.49195 F1800.000
G1 E32.49195 F1800.00000
G92 E0
G1 X169.039 Y51.040 F9000.000
G1 E6.00000 F1800.00000
G1 X114.039 Y51.040 E12.12361 F1800.000
G1 X112.951 Y51.995 F9000.000
G1 X106.368 Y52.006 E12.85655 F1800.000
G1 X106.368 Y52.006 F9000.000
G1 X105.514 Y52.103 E12.90249 F1800.000
G1 X104.607 Y52.421 E12.95390
G1 X103.792 Y52.932 E13.00531
G1 X103.126 Y53.598 E13.05567
G1 X102.594 Y54.445 E13.10914
G1 X102.283 Y55.334 E13.15950
G1 X102.186 Y56.188 E13.20544
G1 X102.186 Y56.188 F9000.000
G1 X102.186 Y94.890 E17.51445 F1800.000
G1 X102.187 Y94.890 F9000.000
G1 X102.286 Y95.754 E17.56091 F1800.000
G1 X102.594 Y96.635 E17.61083
G1 X103.126 Y97.482 E17.66430
G1 X103.792 Y98.148 E17.71466
G1 X104.607 Y98.659 E17.76607
G1 X105.514 Y98.977 E17.81748
G1 X106.368 Y99.074 E17.86342
G1 X106.368 Y99.074 F9000.000
G1 X112.951 Y99.085 E18.59635 F1800.000
G1 E12.59635 F1800.00000
G92 E0
G1 X80.703 Y99.557 F9000.000
G1 E6.00000 F1800.00000
G1 X80.703 Y98.613 E6.05045 F3000.000
G1 X92.539 Y98.613 E6.68320
G1 X93.322 Y98.525 E6.72534
G1 X94.132 Y98.242 E6.77120
G1 X94.859 Y97.785 E6.81706
