; generated by Slic3r 1.2.9 on 2020-05-02 at 10:40:15

; external perimeters extrusion width = 0.40mm
; perimeters extrusion width = 0.62mm
; infill extrusion width = 0.33mm
; solid infill extrusion width = 0.62mm
; top infill extrusion width = 0.20mm

M106 S256; Turn on fan to 100% power
M104 S140; turn on extruder temperature at S value
M140 S60; turn on bed temperature at S value
G28; home all axes
M84; disable motors
G1 Z15 F15000; have Z move to 20mm at 15000 mm/min
M190 S55; turn on bed temperature at S value and wait
M140 S55; turn on bed temperature at S value (printing temperature)
M109 S200; turn on extruder temperature at S value and wait (printing temperature)
M104 S200; turn on extruder temperature at S value
G1 Z0 F12000; move Z back to home
G21 ; set units to millimeters
G90 ; use absolute coordinates
M82 ; use absolute distances for extrusion
G92 E0
M106 S255
;Layer change
G1 E-6.00000 F1800.00000
G92 E0
G1 Z0.300 F9000.000
G1 X68.065 Y79.855 F9000.000
G1 E6.00000 F1800.00000
G1 X69.149 Y79.021 E6.06727 F600.000
G1 X69.933 Y78.865 E6.10661
G1 X122.933 Y77.365 E8.71606
G1 X136.000 Y77.364 E9.35917
G1 X136.267 Y77.379 E9.37231
G1 X137.602 Y77.530 E9.43846 F600.000
G1 X138.123 Y77.649 E9.46473
G1 X139.391 Y78.092 E9.53088
G1 X139.872 Y78.324 E9.55713
G1 X141.010 Y79.039 E9.62329
G1 X141.428 Y79.372 E9.64958
G1 X142.378 Y80.323 E9.71573
G1 X142.711 Y80.740 E9.74200
G1 X143.427 Y81.879 E9.80821
G1 X143.658 Y82.359 E9.83441
G1 X144.101 Y83.627 E9.90054
G1 X144.220 Y84.148 E9.92683
G1 X144.371 Y85.485 E9.99305
G1 X144.386 Y85.750 E10.00612
G1 X144.386 Y124.250 E11.90090
G1 X144.371 Y124.517 E11.91407
G1 X144.220 Y125.852 E11.98019
G1 X144.101 Y126.373 E12.00648
G1 X143.657 Y127.643 E12.07270
G1 X143.426 Y128.123 E12.09890
G1 X142.711 Y129.260 E12.16502
G1 X142.378 Y129.678 E12.19131
G1 X141.428 Y130.628 E12.25744
G1 X141.010 Y130.961 E12.28373
G1 X139.873 Y131.676 E12.34985
G1 X139.391 Y131.908 E12.37614
G1 X138.123 Y132.351 E12.44227
G1 X137.603 Y132.470 E12.46850
G1 X136.267 Y132.621 E12.53469
G1 X136.000 Y132.636 E12.54785
G1 X122.935 Y132.635 E13.19085
G1 X67.935 Y131.135 E15.89868
G1 X66.636 Y130.708 E15.96596
G1 X65.786 Y129.638 E16.03323
G1 X65.614 Y128.750 E16.07772
G1 X65.617 Y126.996 E16.16405
G1 X67.617 Y81.146 E18.42270
G1 X68.045 Y79.911 E18.48702
G1 E12.48702 F1800.00000
G92 E0
G1 X123.611 Y128.139 F9000.000
G1 E6.00000 F1800.00000
G1 X68.611 Y128.139 E8.70683 F600.000
G1 X68.611 Y127.711 E8.72793
G1 X136.034 Y127.711 E12.04619
G1 X136.771 Y127.628 E12.08267
G1 X137.503 Y127.371 E12.12086
G1 X138.160 Y126.959 E12.15904
G1 X138.709 Y126.410 E12.19722
G1 X139.121 Y125.753 E12.23540
G1 X139.378 Y125.021 E12.27358
G1 X139.461 Y124.284 E12.31006
G1 X139.461 Y85.716 E14.20822
G1 X139.378 Y84.979 E14.24470
G1 X139.121 Y84.247 E14.28288
G1 X138.709 Y83.590 E14.32106
G1 X138.160 Y83.041 E14.35924
G1 X137.503 Y82.629 E14.39742
G1 X136.771 Y82.372 E14.43561
G1 X136.034 Y82.289 E14.47209
G1 X70.611 Y82.289 E17.69192
G1 X70.611 Y81.861 E17.71302
G1 X123.611 Y81.861 E20.32142
G1 X123.611 Y80.361 E20.39524
G1 X135.969 Y80.361 E21.00347
G1 X137.198 Y80.499 E21.06435
G1 X138.337 Y80.898 E21.12370
G1 X139.358 Y81.539 E21.18305
G1 X140.211 Y82.392 E21.24241
G1 X140.852 Y83.413 E21.30176
G1 X141.251 Y84.552 E21.36111
G1 X141.389 Y85.784 E21.42216
G1 X141.389 Y124.216 E23.31356
G1 X141.251 Y125.448 E23.37461
G1 X140.852 Y126.587 E23.43397
G1 X140.211 Y127.608 E23.49332
G1 X139.358 Y128.461 E23.55267
G1 X138.337 Y129.102 E23.61202
G1 X137.198 Y129.501 E23.67138
G1 X135.966 Y129.639 E23.73242
G1 X123.611 Y129.639 E24.34048
G1 X123.611 Y128.199 E24.41135
G1 X123.225 Y128.525 F9000.000
G1 X68.225 Y128.525 E27.11818 F600.000
G1 X68.225 Y127.325 E27.17724
G1 X136.013 Y127.325 E30.51341
G1 X136.685 Y127.249 E30.54669
G1 X137.335 Y127.022 E30.58060
G1 X137.918 Y126.655 E30.61450
G1 X138.405 Y126.168 E30.64840
G1 X138.772 Y125.585 E30.68230
G1 X138.999 Y124.935 E30.71621
G1 X139.075 Y124.263 E30.74949
G1 X139.075 Y85.737 E32.64551
G1 X138.999 Y85.065 E32.67879
G1 X138.772 Y84.415 E32.71270
G1 X138.405 Y83.832 E32.74660
G1 X137.918 Y83.345 E32.78051
G1 X137.335 Y82.978 E32.81441
G1 X136.685 Y82.751 E32.84831
G1 X136.013 Y82.675 E32.88159
G1 X70.225 Y82.675 E36.11934
G1 X70.225 Y81.475 E36.17839
G1 X123.225 Y81.475 E38.78679
G1 X123.225 Y79.975 E38.86062
G1 X135.991 Y79.975 E39.48889
G1 X137.285 Y80.121 E39.55297
G1 X138.505 Y80.548 E39.61660
G1 X139.600 Y81.236 E39.68023
G1 X140.514 Y82.150 E39.74386
G1 X141.202 Y83.245 E39.80748
G1 X141.629 Y84.465 E39.87112
G1 X141.775 Y85.763 E39.93537
G1 X141.775 Y124.237 E41.82890
G1 X141.629 Y125.535 E41.89316
G1 X141.202 Y126.755 E41.95679
G1 X140.514 Y127.850 E42.02042
G1 X139.600 Y128.764 E42.08405
G1 X138.505 Y129.452 E42.14767
G1 X137.285 Y129.879 E42.21130
G1 X135.987 Y130.025 E42.27556
G1 X123.225 Y130.025 E42.90366
G1 X123.225 Y128.585 E42.97453
G1 X123.225 Y128.125 F9000.000
G1 X123.803 Y127.925 F9000.000
G1 X68.803 Y127.925 E45.68136 F600.000
G1 E39.68136 F1800.00000
G92 E0
G1 X70.803 Y82.075 F9000.000
G1 E6.00000 F1800.00000
G1 X123.803 Y82.075 E8.60840 F600.000
G1 X124.087 Y81.624 F9000.000
G1 X124.469 Y82.006 E8.63511 F600.000
G1 X125.017 Y82.006 E8.66226
G1 X123.894 Y80.883 E8.74086
G1 X124.205 Y80.644 E8.76022
G1 X125.566 Y82.006 E8.85551
G1 X126.114 Y82.006 E8.88266
G1 X124.753 Y80.644 E8.97795
G1 X125.302 Y80.644 E9.00510
G1 X126.663 Y82.006 E9.10038
G1 X127.211 Y82.006 E9.12753
G1 X125.850 Y80.645 E9.22282
G1 X126.399 Y80.645 E9.24997
G1 X127.760 Y82.006 E9.34525
G1 X128.308 Y82.006 E9.37240
G1 X126.947 Y80.645 E9.46768
G1 X127.496 Y80.645 E9.49483
G1 X128.857 Y82.006 E9.59011
G1 X129.405 Y82.006 E9.61726
G1 X128.044 Y80.645 E9.71254
G1 X128.593 Y80.645 E9.73969
G1 X129.954 Y82.006 E9.83497
G1 X130.502 Y82.006 E9.86212
G1 X129.141 Y80.645 E9.95740
G1 X129.690 Y80.645 E9.98455
G1 X131.051 Y82.006 E10.07982
G1 X131.599 Y82.006 E10.10697
G1 X130.238 Y80.645 E10.20225
G1 X130.787 Y80.645 E10.22940
G1 X132.148 Y82.006 E10.32467
G1 X132.696 Y82.006 E10.35182
G1 X131.336 Y80.645 E10.44709
G1 X131.884 Y80.645 E10.47424
G1 X133.245 Y82.006 E10.56951
G1 X133.793 Y82.006 E10.59667
G1 X132.433 Y80.645 E10.69193
G1 X132.981 Y80.645 E10.71909
G1 X134.342 Y82.006 E10.81435
G1 X134.891 Y82.006 E10.84150
G1 X133.530 Y80.645 E10.93677
G1 X134.078 Y80.645 E10.96392
G1 X135.439 Y82.006 E11.05919
G1 X135.988 Y82.006 E11.08634
G1 X134.627 Y80.645 E11.18160
G1 X135.175 Y80.645 E11.20875
G1 X136.587 Y82.056 E11.30756
G1 X137.304 Y82.225 E11.34401
G1 X135.724 Y80.645 E11.45460
G1 X136.324 Y80.696 E11.48441
G1 X138.449 Y82.821 E11.63319
G1 X138.929 Y83.301 F9000.000
G1 X141.054 Y85.426 E11.78196 F600.000
G1 X140.984 Y84.808 E11.81275
G1 X136.942 Y80.766 E12.09572
G1 X137.752 Y81.027 F9000.000
G1 X140.723 Y83.998 E12.30370 F600.000
G1 X139.525 Y84.446 F9000.000
G1 X141.106 Y86.027 E12.41431 F600.000
G1 X141.106 Y86.575 E12.44147
G1 X139.694 Y85.163 E12.54030
G1 X139.744 Y85.762 E12.57007
G1 X141.106 Y87.124 E12.66536
G1 X141.106 Y87.672 E12.69251
G1 X139.744 Y86.311 E12.78780
G1 X139.744 Y86.859 E12.81495
G1 X141.106 Y88.221 E12.91024
G1 X141.106 Y88.769 E12.93739
G1 X139.744 Y87.408 E13.03268
G1 X139.744 Y87.957 E13.05983
G1 X141.106 Y89.318 E13.15512
G1 X141.106 Y89.866 E13.18227
G1 X139.744 Y88.505 E13.27756
G1 X139.744 Y89.054 E13.30471
G1 X141.106 Y90.415 E13.40000
G1 X141.106 Y90.963 E13.42715
G1 X139.744 Y89.602 E13.52244
G1 X139.744 Y90.151 E13.54959
G1 X141.106 Y91.512 E13.64488
G1 X141.106 Y92.060 E13.67203
G1 X139.744 Y90.699 E13.76732
G1 X139.744 Y91.248 E13.79447
G1 X141.106 Y92.609 E13.88976
G1 X141.106 Y93.157 E13.91691
G1 X139.744 Y91.796 E14.01220
G1 X139.744 Y92.345 E14.03935
G1 X141.106 Y93.706 E14.13464
G1 X141.106 Y94.254 E14.16179
G1 X139.744 Y92.893 E14.25708
G1 X139.744 Y93.442 E14.28423
G1 X141.106 Y94.803 E14.37952
G1 X141.106 Y95.351 E14.40667
G1 X139.744 Y93.990 E14.50196
G1 X139.744 Y94.539 E14.52911
G1 X141.106 Y95.900 E14.62440
G1 X141.106 Y96.448 E14.65155
G1 X139.744 Y95.087 E14.74684
G1 X139.744 Y95.636 E14.77399
G1 X141.106 Y96.997 E14.86928
G1 X141.106 Y97.545 E14.89643
G1 X139.744 Y96.184 E14.99172
G1 X139.744 Y96.733 E15.01887
G1 X141.106 Y98.094 E15.11416
G1 X141.106 Y98.642 E15.14131
G1 X139.744 Y97.281 E15.23660
G1 X139.744 Y97.830 E15.26375
G1 X141.106 Y99.191 E15.35904
G1 X141.106 Y99.739 E15.38619
G1 X139.744 Y98.378 E15.48148
G1 X139.744 Y98.927 E15.50863
G1 X141.106 Y100.288 E15.60392
G1 X141.106 Y100.836 E15.63107
G1 X139.744 Y99.475 E15.72636
G1 X139.744 Y100.024 E15.75351
G1 X141.106 Y101.385 E15.84880
G1 X141.106 Y101.934 E15.87595
G1 X139.744 Y100.572 E15.97124
G1 X139.744 Y101.121 E15.99839
G1 X141.106 Y102.482 E16.09368
G1 X141.106 Y103.031 E16.12083
G1 X139.744 Y101.669 E16.21612
G1 X139.744 Y102.218 E16.24327
G1 X141.106 Y103.579 E16.33856
G1 X141.106 Y104.128 E16.36571
G1 X139.744 Y102.766 E16.46100
G1 X139.744 Y103.315 E16.48815
G1 X141.106 Y104.676 E16.58344
G1 X141.106 Y105.225 E16.61059
G1 X139.744 Y103.863 E16.70588
G1 X139.744 Y104.412 E16.73303
G1 X141.106 Y105.773 E16.82832
G1 X141.106 Y106.322 E16.85547
G1 X139.744 Y104.960 E16.95076
G1 X139.744 Y105.509 E16.97791
G1 X141.106 Y106.870 E17.07320
G1 X141.106 Y107.419 E17.10035
G1 X139.744 Y106.058 E17.19564
G1 X139.744 Y106.606 E17.22279
G1 X141.106 Y107.967 E17.31808
G1 X141.106 Y108.516 E17.34523
G1 X139.744 Y107.155 E17.44052
G1 X139.744 Y107.703 E17.46767
G1 X141.106 Y109.064 E17.56296
G1 X141.106 Y109.613 E17.59011
G1 X139.744 Y108.252 E17.68540
G1 X139.744 Y108.800 E17.71255
G1 X141.106 Y110.161 E17.80784
G1 X141.106 Y110.710 E17.83499
G1 X139.744 Y109.349 E17.93028
G1 X139.744 Y109.897 E17.95743
G1 X141.106 Y111.258 E18.05272
G1 X141.106 Y111.807 E18.07987
G1 X139.744 Y110.446 E18.17516
G1 X139.744 Y110.994 E18.20231
G1 X141.106 Y112.355 E18.29760
G1 X141.106 Y112.904 E18.32475
G1 X139.744 Y111.543 E18.42004
G1 X139.744 Y112.091 E18.44719
G1 X141.106 Y113.452 E18.54248
G1 X141.106 Y114.001 E18.56963
G1 X139.744 Y112.640 E18.66492
G1 X139.744 Y113.188 E18.69207
G1 X141.106 Y114.549 E18.78736
G1 X141.106 Y115.098 E18.81451
G1 X139.744 Y113.737 E18.90980
G1 X139.744 Y114.285 E18.93695
G1 X141.106 Y115.646 E19.03224
G1 X141.106 Y116.195 E19.05939
G1 X139.744 Y114.834 E19.15468
G1 X139.744 Y115.382 E19.18183
G1 X141.106 Y116.743 E19.27712
G1 X141.106 Y117.292 E19.30427
G1 X139.744 Y115.931 E19.39956
G1 X139.744 Y116.479 E19.42671
G1 X141.106 Y117.840 E19.52200
G1 X141.106 Y118.389 E19.54915
G1 X139.744 Y117.028 E19.64444
G1 X139.744 Y117.576 E19.67159
G1 X141.106 Y118.937 E19.76688
G1 X141.106 Y119.486 E19.79403
G1 X139.744 Y118.125 E19.88932
G1 X139.744 Y118.673 E19.91647
G1 X141.106 Y120.035 E20.01176
G1 X141.106 Y120.583 E20.03891
G1 X139.744 Y119.222 E20.13420
G1 X139.744 Y119.770 E20.16135
G1 X141.106 Y121.132 E20.25664
G1 X141.106 Y121.680 E20.28379
G1 X139.744 Y120.319 E20.37908
G1 X139.744 Y120.867 E20.40623
G1 X141.106 Y122.229 E20.50152
G1 X141.106 Y122.777 E20.52867
G1 X139.744 Y121.416 E20.62396
G1 X139.744 Y121.964 E20.65111
G1 X141.106 Y123.326 E20.74640
G1 X141.106 Y123.874 E20.77355
G1 X139.744 Y122.513 E20.86884
G1 X139.744 Y123.061 E20.89599
G1 X141.091 Y124.408 E20.99025
G1 X141.035 Y124.901 E21.01481
G1 X139.744 Y123.610 E21.10518
G1 X139.744 Y124.158 E21.13233
G1 X140.980 Y125.394 E21.21881
G1 X140.847 Y125.810 E21.24042
G1 X139.695 Y124.658 E21.32104
G1 X139.617 Y125.128 E21.34463
G1 X140.705 Y126.216 E21.42079
G1 X140.543 Y126.603 E21.44155
G1 X139.475 Y125.534 E21.51635
G1 X139.314 Y125.922 E21.53712
G1 X140.332 Y126.940 E21.60837
G1 X140.120 Y127.277 E21.62807
G1 X139.102 Y126.259 E21.69932
G1 X138.884 Y126.589 E21.71891
G1 X139.866 Y127.571 E21.78767
G1 X139.591 Y127.845 E21.80687
G1 X138.609 Y126.863 E21.87563
G1 X138.335 Y127.137 E21.89483
G1 X139.317 Y128.119 E21.96359
G1 X139.022 Y128.373 E21.98284
G1 X138.004 Y127.355 E22.05409
G1 X137.668 Y127.567 E22.07379
G1 X138.685 Y128.585 E22.14504
G1 X138.348 Y128.796 E22.16473
G1 X137.279 Y127.727 E22.23960
G1 X136.873 Y127.869 E22.26091
G1 X137.961 Y128.957 E22.33707
G1 X137.554 Y129.099 E22.35838
G1 X136.401 Y127.946 E22.43908
G1 X135.901 Y127.994 E22.46396
G1 X137.137 Y129.231 E22.55049
G1 X136.644 Y129.286 E22.57505
G1 X135.353 Y127.994 E22.66547
G1 X134.804 Y127.994 E22.69262
G1 X136.151 Y129.342 E22.78693
G1 X135.617 Y129.356 E22.81340
G1 X134.256 Y127.994 E22.90869
G1 X133.707 Y127.994 E22.93584
G1 X135.068 Y129.356 E23.03113
G1 X134.520 Y129.356 E23.05828
G1 X133.159 Y127.994 E23.15357
G1 X132.610 Y127.994 E23.18072
G1 X133.971 Y129.356 E23.27601
G1 X133.423 Y129.356 E23.30316
G1 X132.062 Y127.994 E23.39845
G1 X131.513 Y127.994 E23.42560
G1 X132.874 Y129.356 E23.52089
G1 X132.326 Y129.356 E23.54804
G1 X130.964 Y127.994 E23.64333
G1 X130.416 Y127.994 E23.67048
G1 X131.777 Y129.356 E23.76577
G1 X131.229 Y129.356 E23.79292
G1 X129.867 Y127.994 E23.88821
G1 X129.319 Y127.994 E23.91536
G1 X130.680 Y129.356 E24.01065
G1 X130.132 Y129.356 E24.03780
G1 X128.770 Y127.994 E24.13309
G1 X128.222 Y127.994 E24.16024
G1 X129.583 Y129.356 E24.25553
G1 X129.035 Y129.356 E24.28268
G1 X127.673 Y127.994 E24.37797
G1 X127.125 Y127.994 E24.40512
G1 X128.486 Y129.356 E24.50041
G1 X127.938 Y129.356 E24.52756
G1 X126.576 Y127.994 E24.62285
G1 X126.028 Y127.994 E24.65000
G1 X127.389 Y129.356 E24.74529
G1 X126.841 Y129.356 E24.77244
G1 X125.479 Y127.994 E24.86773
G1 X124.931 Y127.994 E24.89488
G1 X126.292 Y129.356 E24.99017
G1 X125.743 Y129.356 E25.01732
G1 X124.382 Y127.994 E25.11261
G1 X124.087 Y128.248 E25.13186
G1 X125.195 Y129.356 E25.20941
G1 X124.646 Y129.356 E25.23656
G1 X123.894 Y128.604 E25.28921
G1 X123.894 Y129.152 E25.31636
G1 X124.098 Y129.356 E25.33061
G1 E19.33061 F1800.00000
G92 E0
G1 X140.053 Y82.779 F9000.000
G1 E6.00000 F1800.00000
G1 X138.970 Y81.697 E6.07575 F600.000
M104 S205 ; set temperature
M140 S55 ; wait for bed temperature to be reached
;Layer change
G1 E0.07575 F1800.00000
G92 E0
G1 Z0.520 F9000.000
G1 X123.662 Y128.088 F9000.000
G1 E6.00000 F1800.00000
G1 X68.662 Y128.088 E8.94029 F3000.000
G1 X68.662 Y127.502 E8.97162
G1 X136.037 Y127.502 E12.57349
G1 X136.725 Y127.425 E12.61047
G1 X137.413 Y127.184 E12.64945
G1 X138.030 Y126.796 E12.68843
G1 X138.546 Y126.280 E12.72741
G1 X138.934 Y125.663 E12.76639
G1 X139.175 Y124.975 E12.80537
G1 X139.252 Y124.287 E12.84235
G1 X139.252 Y85.713 E14.90453
G1 X139.175 Y85.025 E14.94151
G1 X138.934 Y84.337 E14.98050
G1 X138.546 Y83.720 E15.01947
G1 X138.030 Y83.204 E15.05846
G1 X137.413 Y82.816 E15.09743
G1 X136.725 Y82.575 E15.13642
G1 X136.037 Y82.498 E15.17340
G1 X70.662 Y82.498 E18.66835
G1 X70.662 Y81.912 E18.69967
G1 X123.662 Y81.912 E21.53305
G1 X123.662 Y80.412 E21.61323
G1 X135.973 Y80.413 E22.27135
G1 X137.187 Y80.550 E22.33668
G1 X138.314 Y80.944 E22.40053
G1 X139.326 Y81.580 E22.46439
G1 X140.170 Y82.424 E22.52824
G1 X140.806 Y83.436 E22.59209
G1 X141.197 Y84.554 E22.65545
G1 X141.338 Y85.788 E22.72181
G1 X141.338 Y124.213 E24.77601
G1 X141.200 Y125.437 E24.84186
G1 X140.806 Y126.564 E24.90572
G1 X140.170 Y127.576 E24.96957
G1 X139.326 Y128.420 E25.03342
G1 X138.314 Y129.056 E25.09727
G1 X137.187 Y129.450 E25.16113
G1 X135.963 Y129.588 E25.22698
G1 X123.662 Y129.588 E25.88458
G1 X123.662 Y128.148 E25.96156
G1 X123.200 Y128.550 F9000.000
G1 X68.200 Y128.550 E27.77756 F1800.000
G1 X68.200 Y127.040 E27.82742
G1 X136.011 Y127.040 E30.06643
G1 X136.621 Y126.971 E30.08669
G1 X137.211 Y126.765 E30.10733
G1 X137.740 Y126.432 E30.12797
G1 X138.182 Y125.990 E30.14861
G1 X138.515 Y125.461 E30.16925
G1 X138.721 Y124.871 E30.18988
G1 X138.790 Y124.261 E30.21015
G1 X138.790 Y85.739 E31.48209
G1 X138.721 Y85.129 E31.50236
G1 X138.515 Y84.539 E31.52300
G1 X138.182 Y84.010 E31.54363
G1 X137.740 Y83.568 E31.56427
G1 X137.211 Y83.235 E31.58491
G1 X136.621 Y83.029 E31.60555
G1 X136.011 Y82.960 E31.62581
G1 X70.200 Y82.960 E33.79878
G1 X70.200 Y81.450 E33.84864
G1 X123.200 Y81.450 E35.59861
G1 X123.200 Y79.950 E35.64814
G1 X135.999 Y79.951 E36.07072
G1 X137.290 Y80.097 E36.11364
G1 X138.516 Y80.526 E36.15652
G1 X139.615 Y81.216 E36.19939
