; generated by Slic3r 1.2.9 on 2020-05-06 at 12:58:49

; external perimeters extrusion width = 0.40mm
; perimeters extrusion width = 0.62mm
; infill extrusion width = 0.33mm
; solid infill extrusion width = 0.62mm
; top infill extrusion width = 0.20mm

M106 S256; Turn on fan to 100% power
M104 S140; turn on extruder temperature at S value
M140 S60; turn on bed temperature at S value
G28; home all axes
M84; disable motors
G1 Z15 F15000; have Z move to 20mm at 15000 mm/min
M190 S55; turn on bed temperature at S value and wait
M140 S55; turn on bed temperature at S value (printing temperature)
M109 S200; turn on extruder temperature at S value and wait (printing temperature)
M104 S200; turn on extruder temperature at S value
G1 Z0 F12000; move Z back to home
G21 ; set units to millimeters
G90 ; use absolute coordinates
M82 ; use absolute distances for extrusion
G92 E0
M106 S255
;Layer change
G1 E-6.00000 F1800.00000
G92 E0
G1 Z0.300 F9000.000
G1 X52.147 Y30.854 F9000.000
G1 E6.00000 F1800.00000
G1 X52.440 Y30.450 E6.02458 F600.000
G1 X52.860 Y29.984 E6.05544
G1 X53.230 Y29.651 E6.07994
G1 X53.738 Y29.282 E6.11084
G1 X54.170 Y29.033 E6.13538
G1 X54.743 Y28.777 E6.16625
G1 X55.217 Y28.623 E6.19080
G1 X55.830 Y28.493 E6.22167
G1 X56.202 Y28.444 E6.24010
G1 X56.515 Y28.428 E6.25556
G1 X132.640 Y28.424 E10.00203
G1 X132.889 Y28.437 E10.01432
G1 X133.513 Y28.503 E10.04519 F600.000
G1 X134.001 Y28.607 E10.06971
G1 X134.597 Y28.801 E10.10060
G1 X135.049 Y29.001 E10.12491
G1 X135.596 Y29.317 E10.15599
G1 X136.000 Y29.610 E10.18057
G1 X136.466 Y30.030 E10.21144
G1 X136.799 Y30.400 E10.23593
G1 X137.168 Y30.908 E10.26683
G1 X137.417 Y31.340 E10.29137
G1 X137.673 Y31.913 E10.32226
G1 X137.827 Y32.387 E10.34679
G1 X137.957 Y33.000 E10.37766
G1 X138.006 Y33.372 E10.39609
G1 X138.026 Y33.810 E10.41768
G1 X138.026 Y72.310 E12.31246
G1 X137.947 Y73.184 E12.35563
G1 X137.843 Y73.670 E12.38012
G1 X137.649 Y74.267 E12.41101
G1 X137.447 Y74.722 E12.43548
G1 X137.133 Y75.266 E12.46641
G1 X136.840 Y75.670 E12.49099
G1 X136.420 Y76.136 E12.52185
G1 X136.050 Y76.469 E12.54634
G1 X135.542 Y76.838 E12.57725
G1 X135.110 Y77.087 E12.60179
G1 X134.538 Y77.343 E12.63265
G1 X134.063 Y77.497 E12.65721
G1 X133.450 Y77.627 E12.68808
G1 X133.078 Y77.676 E12.70651
G1 X132.765 Y77.692 E12.72196
G1 X56.640 Y77.696 E16.46844
G1 X55.767 Y77.617 E16.51159
G1 X55.280 Y77.513 E16.53610
G1 X54.683 Y77.319 E16.56700
G1 X54.230 Y77.118 E16.59139
G1 X53.684 Y76.803 E16.62239
G1 X53.280 Y76.510 E16.64697
G1 X52.814 Y76.090 E16.67783
G1 X52.481 Y75.720 E16.70235
G1 X52.158 Y75.275 E16.72939
G1 X51.863 Y74.780 E16.75775
G1 X51.607 Y74.207 E16.78863
G1 X51.453 Y73.733 E16.81317
G1 X51.323 Y73.120 E16.84404
G1 X51.274 Y72.748 E16.86247
G1 X51.258 Y72.435 E16.87793
G1 X51.254 Y33.810 E18.77884
G1 X51.333 Y32.937 E18.82199
G1 X51.437 Y32.450 E18.84650
G1 X51.631 Y31.853 E18.87739
G1 X51.831 Y31.402 E18.90166
G1 X52.117 Y30.906 E18.92984
G1 E12.92984 F1800.00000
G92 E0
G1 X119.760 Y64.158 F9000.000
G1 E6.00000 F1800.00000
G1 X120.156 Y62.938 E6.06317 F600.000
G1 X120.798 Y61.826 E6.12633
G1 X121.657 Y60.872 E6.18950
G1 X122.695 Y60.118 E6.25267
G1 X123.868 Y59.596 E6.31584
G1 X125.123 Y59.329 E6.37900
G1 X126.407 Y59.329 E6.44217 F600.000
G1 X127.662 Y59.596 E6.50533
G1 X128.835 Y60.118 E6.56850
G1 X129.873 Y60.872 E6.63167
G1 X130.732 Y61.826 E6.69484
G1 X131.374 Y62.938 E6.75800
G1 X131.770 Y64.158 E6.82117
G1 X131.904 Y65.435 E6.88434
G1 X131.770 Y66.712 E6.94751
G1 X131.374 Y67.932 E7.01068
G1 X130.732 Y69.044 E7.07384
G1 X129.873 Y69.997 E7.13701
G1 X128.835 Y70.752 E7.20018
G1 X127.662 Y71.274 E7.26334
G1 X126.407 Y71.541 E7.32651
G1 X125.123 Y71.541 E7.38968
G1 X123.868 Y71.274 E7.45285
G1 X122.695 Y70.752 E7.51601
G1 X121.657 Y69.997 E7.57918
G1 X120.798 Y69.044 E7.64235
G1 X120.156 Y67.932 E7.70551
G1 X119.760 Y66.712 E7.76868
G1 X119.626 Y65.435 E7.83185
G1 X119.753 Y64.218 E7.89207
G1 X120.139 Y64.239 F9000.000
G1 X120.511 Y63.096 E7.95125 F600.000
G1 X121.112 Y62.054 E8.01042
G1 X121.916 Y61.161 E8.06960
G1 X122.889 Y60.454 E8.12878
G1 X123.988 Y59.965 E8.18796
G1 X125.164 Y59.715 E8.24713
G1 X126.366 Y59.715 E8.30631 F600.000
G1 X127.542 Y59.965 E8.36549
G1 X128.641 Y60.454 E8.42467
G1 X129.614 Y61.161 E8.48385
G1 X130.418 Y62.054 E8.54302
G1 X131.019 Y63.096 E8.60220
G1 X131.391 Y64.239 E8.66138
G1 X131.517 Y65.435 E8.72056
G1 X131.391 Y66.631 E8.77974
G1 X131.019 Y67.774 E8.83892
G1 X130.418 Y68.816 E8.89809
G1 X129.614 Y69.709 E8.95727
G1 X128.641 Y70.416 E9.01645
G1 X127.542 Y70.905 E9.07563
G1 X126.366 Y71.155 E9.13480
G1 X125.164 Y71.155 E9.19398
G1 X123.988 Y70.905 E9.25316
G1 X122.889 Y70.416 E9.31234
G1 X121.916 Y69.709 E9.37152
G1 X121.112 Y68.816 E9.43069
G1 X120.511 Y67.774 E9.48987
G1 X120.139 Y66.631 E9.54905
G1 X120.013 Y65.435 E9.60823
G1 X120.133 Y64.299 E9.66445
G1 X120.518 Y64.320 F9000.000
G1 X120.865 Y63.253 E9.71964 F600.000
G1 X121.425 Y62.282 E9.77483
G1 X122.176 Y61.449 E9.83002
G1 X123.083 Y60.790 E9.88521
G1 X124.107 Y60.334 E9.94040
G1 X125.204 Y60.100 E9.99558
G1 X126.326 Y60.100 E10.05077 F600.000
G1 X127.423 Y60.334 E10.10596
G1 X128.447 Y60.790 E10.16115
G1 X129.354 Y61.449 E10.21634
G1 X130.105 Y62.282 E10.27153
G1 X130.665 Y63.253 E10.32671
G1 X131.012 Y64.320 E10.38190
G1 X131.129 Y65.435 E10.43709
G1 X131.012 Y66.550 E10.49228
G1 X130.665 Y67.617 E10.54747
G1 X130.105 Y68.588 E10.60266
G1 X129.354 Y69.421 E10.65784
G1 X128.447 Y70.080 E10.71304
G1 X127.423 Y70.536 E10.76822
G1 X126.326 Y70.770 E10.82341
G1 X125.204 Y70.770 E10.87860
G1 X124.107 Y70.536 E10.93379
G1 X123.083 Y70.080 E10.98898
G1 X122.176 Y69.421 E11.04417
G1 X121.425 Y68.588 E11.09935
G1 X120.865 Y67.617 E11.15454
G1 X120.518 Y66.550 E11.20973
G1 X120.401 Y65.435 E11.26492
G1 X120.512 Y64.379 E11.31716
G1 X120.898 Y64.400 F9000.000
G1 X121.219 Y63.411 E11.36836 F600.000
G1 X121.739 Y62.510 E11.41956
G1 X122.435 Y61.737 E11.47075
G1 X123.277 Y61.125 E11.52195
G1 X124.227 Y60.702 E11.57316
G1 X125.245 Y60.486 E11.62435
G1 X126.285 Y60.486 E11.67555 F600.000
G1 X127.303 Y60.702 E11.72675
G1 X128.253 Y61.125 E11.77795
G1 X129.095 Y61.737 E11.82915
G1 X129.791 Y62.510 E11.88035
G1 X130.311 Y63.411 E11.93155
G1 X130.632 Y64.400 E11.98275
G1 X130.741 Y65.435 E12.03395
G1 X130.632 Y66.470 E12.08515
G1 X130.311 Y67.459 E12.13635
G1 X129.791 Y68.360 E12.18755
G1 X129.095 Y69.133 E12.23874
G1 X128.253 Y69.745 E12.28994
G1 X127.303 Y70.168 E12.34114
G1 X126.285 Y70.384 E12.39234
G1 X125.245 Y70.384 E12.44354
G1 X124.227 Y70.168 E12.49474
G1 X123.277 Y69.745 E12.54594
G1 X122.435 Y69.133 E12.59714
G1 X121.739 Y68.360 E12.64834
G1 X121.219 Y67.459 E12.69953
G1 X120.898 Y66.470 E12.75073
G1 X120.789 Y65.435 E12.80193
G1 X120.891 Y64.460 E12.85018
G1 X120.610 Y64.122 F9000.000
G1 X119.313 Y64.567 F9000.000
G1 X119.404 Y65.435 E12.89314 F600.000
G1 X119.270 Y66.712 E12.95631
G1 X118.874 Y67.932 E13.01948
G1 X118.232 Y69.044 E13.08264
G1 X117.373 Y69.997 E13.14581
G1 X116.335 Y70.752 E13.20898
G1 X115.162 Y71.274 E13.27215
G1 X113.907 Y71.541 E13.33531
G1 X112.623 Y71.541 E13.39848
G1 X111.368 Y71.274 E13.46165
G1 X110.195 Y70.752 E13.52482
G1 X109.157 Y69.997 E13.58799
G1 X108.657 Y69.442 E13.62478
G1 X105.373 Y69.442 E13.78636
G1 X104.873 Y69.997 E13.82316
G1 X103.835 Y70.752 E13.88633
G1 X102.662 Y71.274 E13.94949
G1 X101.407 Y71.541 E14.01266
G1 X100.123 Y71.541 E14.07583
G1 X98.868 Y71.274 E14.13900
G1 X97.695 Y70.752 E14.20217
G1 X96.657 Y69.997 E14.26533
G1 X95.798 Y69.044 E14.32850
G1 X95.156 Y67.932 E14.39167
G1 X94.758 Y66.706 E14.45509
G1 X94.630 Y65.393 E14.52006
G1 X94.760 Y64.159 E14.58113
G1 X95.156 Y62.938 E14.64430
G1 X95.798 Y61.826 E14.70747
G1 X96.657 Y60.872 E14.77063
G1 X97.695 Y60.118 E14.83380
G1 X98.829 Y59.613 E14.89488
G1 X100.118 Y59.329 E14.95984
G1 X101.407 Y59.329 E15.02327
G1 X102.662 Y59.596 E15.08643
G1 X103.835 Y60.118 E15.14960
G1 X104.873 Y60.872 E15.21277
G1 X105.599 Y61.678 E15.26612
G1 X108.431 Y61.678 E15.40555
G1 X109.157 Y60.872 E15.45890
G1 X110.195 Y60.118 E15.52207
G1 X111.368 Y59.596 E15.58524
G1 X112.623 Y59.329 E15.64841
G1 X113.907 Y59.329 E15.71157 F600.000
G1 X115.162 Y59.596 E15.77474
G1 X116.335 Y60.118 E15.83791
G1 X117.373 Y60.872 E15.90108
G1 X118.232 Y61.826 E15.96424
G1 X118.874 Y62.938 E16.02741
G1 X119.270 Y64.158 E16.09057
G1 X119.307 Y64.507 E16.10783
G1 X118.930 Y64.607 F9000.000
G1 X119.017 Y65.435 E16.14880 F600.000
G1 X118.891 Y66.631 E16.20798
G1 X118.519 Y67.774 E16.26715
G1 X117.918 Y68.816 E16.32633
G1 X117.114 Y69.709 E16.38551
G1 X116.141 Y70.416 E16.44469
G1 X115.042 Y70.905 E16.50386
G1 X113.866 Y71.155 E16.56304
G1 X112.664 Y71.155 E16.62222
G1 X111.488 Y70.905 E16.68140
G1 X110.389 Y70.416 E16.74058
G1 X109.416 Y69.709 E16.79976
G1 X108.828 Y69.056 E16.84301
G1 X105.202 Y69.056 E17.02149
G1 X104.614 Y69.709 E17.06474
G1 X103.641 Y70.416 E17.12392
G1 X102.542 Y70.905 E17.18310
G1 X101.366 Y71.155 E17.24227
G1 X100.164 Y71.155 E17.30145
G1 X98.988 Y70.905 E17.36063
G1 X97.889 Y70.416 E17.41981
G1 X96.916 Y69.709 E17.47899
G1 X96.112 Y68.816 E17.53816
G1 X95.511 Y67.774 E17.59734
G1 X95.138 Y66.627 E17.65671
G1 X95.018 Y65.394 E17.71768
G1 X95.139 Y64.239 E17.77484
G1 X95.511 Y63.096 E17.83402
G1 X96.112 Y62.054 E17.89320
G1 X96.916 Y61.161 E17.95237
G1 X97.889 Y60.454 E18.01155
G1 X98.950 Y59.981 E18.06871
G1 X100.160 Y59.715 E18.12968
G1 X101.366 Y59.715 E18.18905
G1 X102.542 Y59.965 E18.24823
G1 X103.641 Y60.454 E18.30740
G1 X104.614 Y61.161 E18.36658
G1 X105.427 Y62.064 E18.42639
G1 X108.603 Y62.064 E18.58272
G1 X109.416 Y61.161 E18.64253
G1 X110.389 Y60.454 E18.70171
G1 X111.488 Y59.965 E18.76088
G1 X112.664 Y59.715 E18.82006
G1 X113.866 Y59.715 E18.87924 F600.000
G1 X115.042 Y59.965 E18.93842
G1 X116.141 Y60.454 E18.99759
G1 X117.114 Y61.161 E19.05677
G1 X117.918 Y62.054 E19.11595
G1 X118.519 Y63.096 E19.17513
G1 X118.891 Y64.239 E19.23430
G1 X118.923 Y64.548 E19.24957
G1 X118.546 Y64.647 F9000.000
G1 X118.629 Y65.435 E19.28854 F600.000
G1 X118.512 Y66.550 E19.34373
G1 X118.165 Y67.617 E19.39892
G1 X117.605 Y68.588 E19.45410
G1 X116.854 Y69.421 E19.50929
G1 X115.947 Y70.080 E19.56448
G1 X114.923 Y70.536 E19.61967
G1 X113.826 Y70.770 E19.67486
G1 X112.704 Y70.770 E19.73005
G1 X111.607 Y70.536 E19.78523
G1 X110.583 Y70.080 E19.84042
G1 X109.676 Y69.421 E19.89561
G1 X109.000 Y68.671 E19.94532
G1 X105.030 Y68.671 E20.14070
G1 X104.354 Y69.421 E20.19041
G1 X103.447 Y70.080 E20.24560
G1 X102.423 Y70.536 E20.30078
G1 X101.326 Y70.770 E20.35597
G1 X100.204 Y70.770 E20.41116
G1 X99.107 Y70.536 E20.46635
G1 X98.083 Y70.080 E20.52154
G1 X97.176 Y69.421 E20.57673
G1 X96.425 Y68.588 E20.63192
G1 X95.865 Y67.617 E20.68711
G1 X95.518 Y66.548 E20.74241
G1 X95.405 Y65.396 E20.79939
G1 X95.518 Y64.320 E20.85263
G1 X95.865 Y63.253 E20.90782
G1 X96.425 Y62.282 E20.96301
G1 X97.176 Y61.449 E21.01820
G1 X98.083 Y60.790 E21.07339
G1 X99.071 Y60.350 E21.12663
G1 X100.202 Y60.100 E21.18361
G1 X101.326 Y60.100 E21.23892
G1 X102.423 Y60.334 E21.29410
G1 X103.447 Y60.790 E21.34929
G1 X104.354 Y61.449 E21.40448
G1 X105.105 Y62.282 E21.45967
G1 X105.201 Y62.449 E21.46918
G1 X108.829 Y62.449 E21.64772
G1 X108.925 Y62.282 E21.65722
G1 X109.676 Y61.449 E21.71241
G1 X110.583 Y60.790 E21.76760
G1 X111.607 Y60.334 E21.82279
G1 X112.704 Y60.100 E21.87798
G1 X113.826 Y60.100 E21.93316 F600.000
G1 X114.923 Y60.334 E21.98835
G1 X115.947 Y60.790 E22.04354
G1 X116.854 Y61.449 E22.09873
G1 X117.605 Y62.282 E22.15392
G1 X118.165 Y63.253 E22.20911
G1 X118.512 Y64.320 E22.26429
G1 X118.540 Y64.588 E22.27756
G1 X118.163 Y64.688 F9000.000
G1 X118.241 Y65.435 E22.31454 F600.000
G1 X118.132 Y66.470 E22.36574
G1 X117.811 Y67.459 E22.41694
G1 X117.291 Y68.360 E22.46814
G1 X116.595 Y69.133 E22.51933
G1 X115.753 Y69.745 E22.57053
G1 X114.803 Y70.168 E22.62173
G1 X113.785 Y70.384 E22.67293
G1 X112.745 Y70.384 E22.72413
G1 X111.727 Y70.168 E22.77533
G1 X110.777 Y69.745 E22.82653
G1 X109.935 Y69.133 E22.87773
G1 X109.239 Y68.360 E22.92893
G1 X109.196 Y68.285 E22.93319
G1 X104.834 Y68.285 E23.14785
G1 X104.791 Y68.360 E23.15211
G1 X104.095 Y69.133 E23.20331
G1 X103.253 Y69.745 E23.25451
G1 X102.303 Y70.168 E23.30571
G1 X101.285 Y70.384 E23.35691
G1 X100.245 Y70.384 E23.40811
G1 X99.227 Y70.168 E23.45931
G1 X98.277 Y69.745 E23.51051
G1 X97.435 Y69.133 E23.56170
G1 X96.739 Y68.360 E23.61290
G1 X96.219 Y67.459 E23.66410
G1 X95.897 Y66.469 E23.71534
G1 X95.793 Y65.397 E23.76834
G1 X95.898 Y64.400 E23.81766
G1 X96.219 Y63.411 E23.86886
G1 X96.739 Y62.510 E23.92006
G1 X97.435 Y61.737 E23.97126
G1 X98.277 Y61.125 E24.02246
G1 X99.192 Y60.718 E24.07178
G1 X100.244 Y60.486 E24.12478
G1 X101.285 Y60.486 E24.17602
G1 X102.303 Y60.702 E24.22722
G1 X103.253 Y61.125 E24.27842
G1 X104.095 Y61.737 E24.32962
G1 X104.791 Y62.510 E24.38082
G1 X104.978 Y62.835 E24.39928
G1 X109.052 Y62.835 E24.59974
G1 X109.239 Y62.510 E24.61821
G1 X109.935 Y61.737 E24.66940
G1 X110.777 Y61.125 E24.72060
G1 X111.727 Y60.702 E24.77180
G1 X112.745 Y60.486 E24.82300
G1 X113.785 Y60.486 E24.87420 F600.000
G1 X114.803 Y60.702 E24.92540
G1 X115.753 Y61.125 E24.97660
G1 X116.595 Y61.737 E25.02780
G1 X117.291 Y62.510 E25.07900
G1 X117.811 Y63.411 E25.13020
G1 X118.132 Y64.400 E25.18139
G1 X118.156 Y64.628 E25.19267
G1 X118.528 Y64.850 F9000.000
G1 X115.469 Y58.637 F9000.000
G1 X115.162 Y58.774 E25.20919 F600.000
G1 X113.907 Y59.041 E25.27236
G1 X112.623 Y59.041 E25.33553
G1 X111.368 Y58.774 E25.39869
G1 X110.195 Y58.252 E25.46186
G1 X109.157 Y57.498 E25.52503
G1 X108.298 Y56.544 E25.58820
G1 X107.656 Y55.432 E25.65136
G1 X107.260 Y54.211 E25.71453
G1 X107.125 Y52.930 E25.77796
G1 X107.273 Y51.618 E25.84292
G1 X107.656 Y50.438 E25.90400
G1 X108.298 Y49.326 E25.96716
G1 X109.157 Y48.372 E26.03033
G1 X109.508 Y48.117 E26.05170
G1 X109.508 Y45.253 E26.19268
G1 X109.157 Y44.998 E26.21405
G1 X108.298 Y44.044 E26.27721
G1 X107.654 Y42.928 E26.34064
G1 X107.255 Y41.669 E26.40560
G1 X107.126 Y40.435 E26.46668
G1 X107.260 Y39.158 E26.52985
G1 X107.656 Y37.938 E26.59301
G1 X108.298 Y36.826 E26.65618
G1 X109.157 Y35.873 E26.71934
G1 X110.195 Y35.118 E26.78251
G1 X111.368 Y34.596 E26.84568
G1 X112.623 Y34.329 E26.90885
G1 X113.907 Y34.329 E26.97202 F600.000
G1 X115.162 Y34.596 E27.03518
G1 X116.335 Y35.118 E27.09835
G1 X117.373 Y35.873 E27.16152
G1 X118.232 Y36.826 E27.22468
G1 X118.874 Y37.938 E27.28785
G1 X119.270 Y39.158 E27.35102
G1 X119.404 Y40.435 E27.41419
G1 X119.270 Y41.712 E27.47736
G1 X118.874 Y42.932 E27.54052
G1 X118.232 Y44.044 E27.60369
G1 X117.373 Y44.998 E27.66685
G1 X117.272 Y45.071 E27.67302
G1 X117.272 Y48.299 E27.83187
G1 X117.373 Y48.372 E27.83803
G1 X118.232 Y49.326 E27.90120
G1 X118.874 Y50.438 E27.96437
G1 X119.270 Y51.659 E28.02753
G1 X119.404 Y52.935 E28.09070
G1 X119.270 Y54.211 E28.15387
G1 X118.874 Y55.432 E28.21704
G1 X118.232 Y56.544 E28.28020
G1 X117.373 Y57.498 E28.34337
G1 X116.335 Y58.252 E28.40654
G1 X115.524 Y58.613 E28.45023
G1 X115.312 Y58.285 F9000.000
G1 X115.042 Y58.405 E28.46476 F600.000
G1 X113.866 Y58.655 E28.52394
G1 X112.664 Y58.655 E28.58311
G1 X111.488 Y58.405 E28.64229
G1 X110.389 Y57.916 E28.70147
G1 X109.416 Y57.209 E28.76065
G1 X108.612 Y56.316 E28.81983
G1 X108.011 Y55.274 E28.87900
G1 X107.639 Y54.131 E28.93818
G1 X107.513 Y52.931 E28.99755
G1 X107.652 Y51.700 E29.05852
G1 X108.011 Y50.596 E29.11568
G1 X108.612 Y49.554 E29.17486
G1 X109.416 Y48.661 E29.23403
G1 X109.894 Y48.314 E29.26308
G1 X109.894 Y45.056 E29.42340
G1 X109.416 Y44.709 E29.45244
G1 X108.612 Y43.816 E29.51162
G1 X108.009 Y42.771 E29.57098
G1 X107.635 Y41.590 E29.63195
G1 X107.513 Y40.435 E29.68911
G1 X107.639 Y39.239 E29.74829
G1 X108.011 Y38.096 E29.80747
G1 X108.612 Y37.054 E29.86665
G1 X109.416 Y36.161 E29.92582
G1 X110.389 Y35.454 E29.98500
G1 X111.488 Y34.965 E30.04418
G1 X112.664 Y34.715 E30.10336
G1 X113.866 Y34.715 E30.16254 F600.000
G1 X115.042 Y34.965 E30.22171
G1 X116.141 Y35.454 E30.28089
G1 X117.114 Y36.161 E30.34007
G1 X117.918 Y37.054 E30.39925
G1 X118.519 Y38.096 E30.45843
G1 X118.891 Y39.239 E30.51760
G1 X119.017 Y40.435 E30.57678
