; generated by Slic3r 1.2.9 on 2020-05-02 at 10:45:31

; external perimeters extrusion width = 0.40mm
; perimeters extrusion width = 0.62mm
; infill extrusion width = 0.33mm
; solid infill extrusion width = 0.62mm
; top infill extrusion width = 0.20mm

M106 S256; Turn on fan to 100% power
M104 S140; turn on extruder temperature at S value
M140 S60; turn on bed temperature at S value
G28; home all axes
M84; disable motors
G1 Z15 F15000; have Z move to 20mm at 15000 mm/min
M190 S55; turn on bed temperature at S value and wait
M140 S55; turn on bed temperature at S value (printing temperature)
M109 S200; turn on extruder temperature at S value and wait (printing temperature)
M104 S200; turn on extruder temperature at S value
G1 Z0 F12000; move Z back to home
G21 ; set units to millimeters
G90 ; use absolute coordinates
M82 ; use absolute distances for extrusion
G92 E0
M106 S255
;Layer change
G1 E-6.00000 F1800.00000
G92 E0
G1 Z0.300 F9000.000
G1 X60.931 Y23.703 F9000.000
G1 E6.00000 F1800.00000
G1 X61.130 Y23.252 E6.02424 F600.000
G1 X61.447 Y22.704 E6.05540
G1 X61.740 Y22.300 E6.07998
G1 X62.160 Y21.834 E6.11084
G1 X62.530 Y21.501 E6.13534
G1 X63.038 Y21.132 E6.16624
G1 X63.470 Y20.883 E6.19078
G1 X64.040 Y20.629 E6.22149
G1 X64.517 Y20.473 E6.24619
G1 X65.130 Y20.343 E6.27706
G1 X65.502 Y20.294 E6.29550
G1 X65.815 Y20.278 E6.31095
G1 X141.940 Y20.274 E10.05743
G1 X142.189 Y20.287 E10.06972
G1 X142.813 Y20.353 E10.10059 F600.000
G1 X143.301 Y20.457 E10.12511
G1 X143.897 Y20.651 E10.15599
G1 X144.349 Y20.851 E10.18030
G1 X144.896 Y21.167 E10.21139
G1 X145.300 Y21.460 E10.23597
G1 X145.766 Y21.880 E10.26683
G1 X146.099 Y22.250 E10.29133
G1 X146.422 Y22.694 E10.31838
G1 X146.717 Y23.190 E10.34675
G1 X146.973 Y23.763 E10.37763
G1 X147.127 Y24.237 E10.40216
G1 X147.257 Y24.850 E10.43304
G1 X147.306 Y25.222 E10.45147
G1 X147.326 Y25.660 E10.47306
G1 X147.326 Y64.160 E12.36784
G1 X147.247 Y65.034 E12.41100
G1 X147.143 Y65.520 E12.43550
G1 X146.949 Y66.117 E12.46639
G1 X146.747 Y66.572 E12.49086
G1 X146.433 Y67.116 E12.52179
G1 X146.140 Y67.520 E12.54636
G1 X145.720 Y67.986 E12.57723
G1 X145.350 Y68.319 E12.60171
G1 X144.842 Y68.688 E12.63264
G1 X144.410 Y68.937 E12.65717
G1 X143.838 Y69.193 E12.68803
G1 X143.363 Y69.347 E12.71258
G1 X142.750 Y69.477 E12.74345
G1 X142.378 Y69.526 E12.76189
G1 X142.065 Y69.542 E12.77734
G1 X65.940 Y69.546 E16.52382
G1 X65.067 Y69.467 E16.56697
G1 X64.580 Y69.363 E16.59148
G1 X63.983 Y69.169 E16.62237
G1 X63.530 Y68.968 E16.64677
G1 X62.984 Y68.653 E16.67777
G1 X62.580 Y68.360 E16.70235
G1 X62.114 Y67.940 E16.73321
G1 X61.781 Y67.570 E16.75773
G1 X61.412 Y67.062 E16.78861
G1 X61.163 Y66.630 E16.81315
G1 X60.907 Y66.057 E16.84402
G1 X60.753 Y65.583 E16.86856
G1 X60.623 Y64.970 E16.89943
G1 X60.574 Y64.598 E16.91787
G1 X60.554 Y64.160 E16.93945
G1 X60.554 Y25.660 E18.83424
G1 X60.633 Y24.787 E18.87739
G1 X60.737 Y24.300 E18.90190
G1 X60.912 Y23.760 E18.92984
G1 E12.92984 F1800.00000
G92 E0
G1 X132.981 Y54.971 F9000.000
G1 E6.00000 F1800.00000
G1 X133.508 Y54.588 E6.03204 F600.000
G1 X134.103 Y54.323 E6.06408
G1 X134.740 Y54.188 E6.09612
G1 X135.332 Y54.188 E6.12530 F600.000
G1 X136.022 Y54.321 E6.15985
G1 X136.622 Y54.588 E6.19218
G1 X137.149 Y54.971 E6.22422
G1 X137.584 Y55.455 E6.25626
G1 X137.910 Y56.018 E6.28830
G1 X138.111 Y56.638 E6.32034
G1 X138.179 Y57.285 E6.35238
G1 X138.111 Y57.932 E6.38442
G1 X137.910 Y58.552 E6.41646
G1 X137.584 Y59.115 E6.44850
G1 X137.149 Y59.599 E6.48054
G1 X136.622 Y59.982 E6.51258
G1 X136.027 Y60.247 E6.54462
G1 X135.391 Y60.382 E6.57665
G1 X134.739 Y60.382 E6.60869
G1 X134.103 Y60.247 E6.64073
G1 X133.508 Y59.982 E6.67277
G1 X132.981 Y59.599 E6.70481
G1 X132.546 Y59.115 E6.73684
G1 X132.220 Y58.552 E6.76889
G1 X132.019 Y57.932 E6.80093
G1 X131.951 Y57.285 E6.83297
G1 X132.019 Y56.638 E6.86500
G1 X132.220 Y56.018 E6.89704
G1 X132.546 Y55.455 E6.92909
G1 X132.941 Y55.015 E6.95817
G1 X133.241 Y55.259 F9000.000
G1 X133.702 Y54.924 E6.98622 F600.000
G1 X134.223 Y54.692 E7.01427
G1 X134.780 Y54.574 E7.04232
G1 X135.296 Y54.574 E7.06769 F600.000
G1 X135.905 Y54.691 E7.09826
G1 X136.428 Y54.924 E7.12641
G1 X136.889 Y55.259 E7.15446
G1 X137.271 Y55.683 E7.18251
G1 X137.556 Y56.176 E7.21057
G1 X137.732 Y56.718 E7.23861
G1 X137.791 Y57.285 E7.26666
G1 X137.732 Y57.852 E7.29471
G1 X137.556 Y58.394 E7.32276
G1 X137.271 Y58.887 E7.35082
G1 X136.889 Y59.311 E7.37887
G1 X136.428 Y59.646 E7.40692
G1 X135.907 Y59.878 E7.43496
G1 X135.350 Y59.996 E7.46301
G1 X134.780 Y59.996 E7.49106
G1 X134.223 Y59.878 E7.51911
G1 X133.702 Y59.646 E7.54716
G1 X133.241 Y59.311 E7.57521
G1 X132.859 Y58.887 E7.60326
G1 X132.574 Y58.394 E7.63131
G1 X132.398 Y57.852 E7.65936
G1 X132.339 Y57.285 E7.68741
G1 X132.398 Y56.718 E7.71546
G1 X132.574 Y56.176 E7.74351
G1 X132.859 Y55.683 E7.77156
G1 X133.201 Y55.304 E7.79666
G1 X133.171 Y54.865 F9000.000
G1 X134.738 Y47.882 F9000.000
G1 X134.103 Y47.747 E7.82864 F600.000
G1 X133.508 Y47.482 E7.86068
G1 X132.981 Y47.099 E7.89272
G1 X132.546 Y46.615 E7.92475
G1 X132.220 Y46.052 E7.95679
G1 X132.019 Y45.432 E7.98884
G1 X131.951 Y44.785 E8.02087
G1 X132.019 Y44.138 E8.05291
G1 X132.220 Y43.518 E8.08495
G1 X132.546 Y42.955 E8.11699
G1 X132.981 Y42.471 E8.14903
G1 X133.508 Y42.088 E8.18107
G1 X134.103 Y41.823 E8.21311
G1 X134.740 Y41.688 E8.24515
G1 X135.390 Y41.688 E8.27718 F600.000
G1 X136.027 Y41.823 E8.30922
G1 X136.622 Y42.088 E8.34126
G1 X137.149 Y42.471 E8.37330
G1 X137.584 Y42.955 E8.40534
G1 X137.910 Y43.518 E8.43738
G1 X138.111 Y44.138 E8.46942
G1 X138.179 Y44.785 E8.50146
G1 X138.111 Y45.432 E8.53350
G1 X137.910 Y46.052 E8.56554
G1 X137.584 Y46.615 E8.59758
G1 X137.149 Y47.099 E8.62961
G1 X136.622 Y47.482 E8.66165
G1 X136.027 Y47.747 E8.69369
G1 X135.380 Y47.884 E8.72625
G1 X134.798 Y47.882 E8.75488
G1 X134.780 Y47.496 F9000.000
G1 X134.223 Y47.378 E8.78291 F600.000
G1 X133.702 Y47.146 E8.81096
G1 X133.241 Y46.811 E8.83901
G1 X132.859 Y46.387 E8.86706
G1 X132.574 Y45.894 E8.89511
G1 X132.398 Y45.352 E8.92316
G1 X132.339 Y44.785 E8.95121
G1 X132.398 Y44.218 E8.97926
G1 X132.574 Y43.676 E9.00731
G1 X132.859 Y43.183 E9.03536
G1 X133.241 Y42.759 E9.06341
G1 X133.702 Y42.424 E9.09146
G1 X134.223 Y42.192 E9.11951
G1 X134.780 Y42.074 E9.14756
G1 X135.350 Y42.074 E9.17561 F600.000
G1 X135.907 Y42.192 E9.20366
G1 X136.428 Y42.424 E9.23171
G1 X136.889 Y42.759 E9.25976
G1 X137.271 Y43.183 E9.28780
G1 X137.556 Y43.676 E9.31586
G1 X137.732 Y44.218 E9.34391
G1 X137.791 Y44.785 E9.37196
G1 X137.732 Y45.352 E9.40000
G1 X137.556 Y45.894 E9.42806
G1 X137.271 Y46.387 E9.45611
G1 X136.889 Y46.811 E9.48415
G1 X136.428 Y47.146 E9.51220
G1 X135.907 Y47.378 E9.54026
G1 X135.340 Y47.498 E9.56879
G1 X134.840 Y47.496 E9.59343
G1 X134.533 Y47.811 F9000.000
G1 X125.611 Y45.432 F9000.000
G1 X125.410 Y46.052 E9.62547 F600.000
G1 X125.084 Y46.615 E9.65751
G1 X124.649 Y47.099 E9.68955
G1 X124.122 Y47.482 E9.72159
G1 X123.527 Y47.747 E9.75363
G1 X122.880 Y47.884 E9.78618
G1 X122.238 Y47.882 E9.81777
G1 X121.603 Y47.747 E9.84975
G1 X121.008 Y47.482 E9.88179
G1 X120.481 Y47.099 E9.91383
G1 X120.046 Y46.615 E9.94587
G1 X119.720 Y46.052 E9.97791
G1 X119.519 Y45.432 E10.00995
G1 X119.451 Y44.785 E10.04199
G1 X119.519 Y44.138 E10.07402
G1 X119.720 Y43.518 E10.10607
G1 X120.046 Y42.955 E10.13811
G1 X120.481 Y42.471 E10.17014
G1 X121.008 Y42.088 E10.20218
G1 X121.603 Y41.823 E10.23422
G1 X122.240 Y41.688 E10.26626
G1 X122.890 Y41.688 E10.29830 F600.000
G1 X123.527 Y41.823 E10.33034
G1 X124.122 Y42.088 E10.36238
G1 X124.649 Y42.471 E10.39441
G1 X125.084 Y42.955 E10.42645
G1 X125.410 Y43.518 E10.45849
G1 X125.611 Y44.138 E10.49053
G1 X125.679 Y44.785 E10.52257
G1 X125.617 Y45.373 E10.55166
G1 X125.232 Y45.352 F9000.000
G1 X125.056 Y45.894 E10.57971 F600.000
G1 X124.771 Y46.387 E10.60776
G1 X124.389 Y46.811 E10.63581
G1 X123.928 Y47.146 E10.66386
G1 X123.407 Y47.378 E10.69191
G1 X122.840 Y47.498 E10.72044
G1 X122.280 Y47.496 E10.74803
G1 X121.723 Y47.378 E10.77606
G1 X121.202 Y47.146 E10.80411
G1 X120.741 Y46.811 E10.83216
G1 X120.359 Y46.387 E10.86021
G1 X120.074 Y45.894 E10.88826
G1 X119.898 Y45.352 E10.91631
G1 X119.839 Y44.785 E10.94436
G1 X119.898 Y44.218 E10.97241
G1 X120.074 Y43.676 E11.00046
G1 X120.359 Y43.183 E11.02851
G1 X120.741 Y42.759 E11.05656
G1 X121.202 Y42.424 E11.08461
G1 X121.723 Y42.192 E11.11266
G1 X122.280 Y42.074 E11.14071
G1 X122.850 Y42.074 E11.16876 F600.000
G1 X123.407 Y42.192 E11.19680
G1 X123.928 Y42.424 E11.22486
G1 X124.389 Y42.759 E11.25291
G1 X124.771 Y43.183 E11.28095
G1 X125.056 Y43.676 E11.30901
G1 X125.232 Y44.218 E11.33706
G1 X125.291 Y44.785 E11.36510
G1 X125.238 Y45.292 E11.39020
G1 X125.519 Y45.630 F9000.000
G1 X123.333 Y54.282 F9000.000
G1 X123.527 Y54.323 E11.39996 F600.000
G1 X124.122 Y54.588 E11.43200
G1 X124.649 Y54.971 E11.46404
G1 X125.084 Y55.455 E11.49608
G1 X125.410 Y56.018 E11.52812
G1 X125.611 Y56.638 E11.56016
G1 X125.679 Y57.285 E11.59220
G1 X125.611 Y57.932 E11.62424
G1 X125.410 Y58.552 E11.65627
G1 X125.084 Y59.115 E11.68832
G1 X124.649 Y59.599 E11.72035
G1 X124.122 Y59.982 E11.75239
G1 X123.527 Y60.247 E11.78443
G1 X122.891 Y60.382 E11.81647
G1 X122.239 Y60.382 E11.84851
G1 X121.603 Y60.247 E11.88054
G1 X121.008 Y59.982 E11.91258
G1 X120.481 Y59.599 E11.94462
G1 X120.046 Y59.115 E11.97666
G1 X119.720 Y58.552 E12.00870
G1 X119.519 Y57.932 E12.04074
G1 X119.451 Y57.285 E12.07278
G1 X119.519 Y56.638 E12.10482
G1 X119.720 Y56.018 E12.13686
G1 X120.046 Y55.455 E12.16890
G1 X120.481 Y54.971 E12.20094
G1 X121.008 Y54.588 E12.23298
G1 X121.603 Y54.323 E12.26502
G1 X122.240 Y54.188 E12.29706
G1 X122.890 Y54.188 E12.32909 F600.000
G1 X123.275 Y54.270 E12.34842
G1 X123.253 Y54.659 F9000.000
G1 X123.407 Y54.692 E12.35618 F600.000
G1 X123.928 Y54.924 E12.38423
G1 X124.389 Y55.259 E12.41228
G1 X124.771 Y55.683 E12.44033
G1 X125.056 Y56.176 E12.46839
G1 X125.232 Y56.718 E12.49643
G1 X125.291 Y57.285 E12.52448
G1 X125.232 Y57.852 E12.55253
G1 X125.056 Y58.394 E12.58058
G1 X124.771 Y58.887 E12.60864
G1 X124.389 Y59.311 E12.63668
G1 X123.928 Y59.646 E12.66473
G1 X123.407 Y59.878 E12.69278
G1 X122.850 Y59.996 E12.72083
G1 X122.280 Y59.996 E12.74888
G1 X121.723 Y59.878 E12.77693
G1 X121.202 Y59.646 E12.80498
G1 X120.741 Y59.311 E12.83303
G1 X120.359 Y58.887 E12.86108
G1 X120.074 Y58.394 E12.88913
G1 X119.898 Y57.852 E12.91718
G1 X119.839 Y57.285 E12.94523
G1 X119.898 Y56.718 E12.97328
G1 X120.074 Y56.176 E13.00133
G1 X120.359 Y55.683 E13.02938
G1 X120.741 Y55.259 E13.05743
G1 X121.202 Y54.924 E13.08548
G1 X121.723 Y54.692 E13.11353
G1 X122.280 Y54.574 E13.14158
G1 X122.850 Y54.574 E13.16962 F600.000
G1 X123.194 Y54.647 E13.18696
G1 X123.359 Y54.542 F9000.000
G1 E7.18696 F1800.00000
G92 E0
G1 X113.111 Y56.638 F9000.000
G1 E6.00000 F1800.00000
G1 X113.179 Y57.285 E6.03204 F600.000
G1 X113.111 Y57.932 E6.06408
G1 X112.910 Y58.552 E6.09612
G1 X112.584 Y59.115 E6.12816
G1 X112.149 Y59.599 E6.16020
G1 X111.622 Y59.982 E6.19224
G1 X111.027 Y60.247 E6.22428
G1 X110.391 Y60.382 E6.25631
G1 X109.739 Y60.382 E6.28835
G1 X109.103 Y60.247 E6.32039
G1 X108.508 Y59.982 E6.35243
G1 X107.981 Y59.599 E6.38447
G1 X107.546 Y59.115 E6.41651
G1 X107.217 Y58.546 E6.44884
G1 X107.013 Y57.875 E6.48339
G1 X106.951 Y57.285 E6.51258
G1 X107.019 Y56.638 E6.54462
G1 X107.220 Y56.018 E6.57665
G1 X107.546 Y55.455 E6.60869
G1 X107.981 Y54.971 E6.64073
G1 X108.508 Y54.588 E6.67277
G1 X109.103 Y54.323 E6.70481
G1 X109.739 Y54.188 E6.73685
G1 X110.391 Y54.188 E6.76889 F600.000
G1 X111.027 Y54.323 E6.80093
G1 X111.622 Y54.588 E6.83296
G1 X112.149 Y54.971 E6.86501
G1 X112.584 Y55.455 E6.89704
G1 X112.910 Y56.018 E6.92909
G1 X113.092 Y56.580 E6.95817
G1 X112.732 Y56.718 F9000.000
G1 X112.791 Y57.285 E6.98622 F600.000
G1 X112.732 Y57.852 E7.01427
G1 X112.556 Y58.394 E7.04232
G1 X112.271 Y58.887 E7.07037
G1 X111.889 Y59.311 E7.09842
G1 X111.428 Y59.646 E7.12647
G1 X110.907 Y59.878 E7.15452
G1 X110.350 Y59.996 E7.18257
G1 X109.780 Y59.996 E7.21062
G1 X109.223 Y59.878 E7.23867
G1 X108.702 Y59.646 E7.26671
G1 X108.241 Y59.311 E7.29476
G1 X107.859 Y58.887 E7.32281
G1 X107.573 Y58.392 E7.35097
G1 X107.393 Y57.798 E7.38154
G1 X107.339 Y57.285 E7.40691
G1 X107.398 Y56.718 E7.43496
G1 X107.574 Y56.176 E7.46301
G1 X107.859 Y55.683 E7.49106
G1 X108.241 Y55.259 E7.51911
G1 X108.702 Y54.924 E7.54716
G1 X109.223 Y54.692 E7.57521
G1 X109.780 Y54.574 E7.60326
G1 X110.350 Y54.574 E7.63131 F600.000
G1 X110.907 Y54.692 E7.65936
G1 X111.428 Y54.924 E7.68741
G1 X111.889 Y55.259 E7.71546
G1 X112.271 Y55.683 E7.74351
G1 X112.556 Y56.176 E7.77156
G1 X112.713 Y56.661 E7.79665
G1 X113.108 Y56.855 F9000.000
G1 X110.833 Y47.788 F9000.000
G1 X110.391 Y47.882 E7.81894 F600.000
G1 X109.739 Y47.882 E7.85098
G1 X109.103 Y47.747 E7.88302
G1 X108.508 Y47.482 E7.91506
G1 X107.981 Y47.099 E7.94710
G1 X107.546 Y46.615 E7.97914
G1 X107.217 Y46.047 E8.01146
G1 X107.013 Y45.375 E8.04602
G1 X106.951 Y44.785 E8.07520
G1 X107.019 Y44.138 E8.10724
G1 X107.220 Y43.518 E8.13928
G1 X107.546 Y42.955 E8.17132
G1 X107.981 Y42.471 E8.20336
G1 X108.508 Y42.088 E8.23540
G1 X109.103 Y41.823 E8.26744
G1 X109.739 Y41.688 E8.29948
G1 X110.391 Y41.688 E8.33151 F600.000
G1 X111.027 Y41.823 E8.36355
G1 X111.622 Y42.088 E8.39559
G1 X112.149 Y42.471 E8.42763
G1 X112.584 Y42.955 E8.45967
G1 X112.910 Y43.518 E8.49171
G1 X113.111 Y44.138 E8.52375
G1 X113.179 Y44.785 E8.55579
G1 X113.111 Y45.432 E8.58783
G1 X112.910 Y46.052 E8.61987
G1 X112.584 Y46.615 E8.65190
G1 X112.149 Y47.099 E8.68394
G1 X111.622 Y47.482 E8.71598
G1 X111.027 Y47.747 E8.74802
G1 X110.892 Y47.775 E8.75482
G1 X110.753 Y47.411 F9000.000
G1 X110.350 Y47.496 E8.77511 F600.000
G1 X109.780 Y47.496 E8.80316
G1 X109.223 Y47.378 E8.83121
G1 X108.702 Y47.146 E8.85926
G1 X108.241 Y46.811 E8.88731
G1 X107.859 Y46.387 E8.91536
G1 X107.573 Y45.892 E8.94352
G1 X107.393 Y45.298 E8.97409
G1 X107.339 Y44.785 E8.99946
G1 X107.398 Y44.218 E9.02751
G1 X107.574 Y43.676 E9.05556
G1 X107.859 Y43.183 E9.08361
G1 X108.241 Y42.759 E9.11166
G1 X108.702 Y42.424 E9.13971
G1 X109.223 Y42.192 E9.16776
G1 X109.780 Y42.074 E9.19581
G1 X110.350 Y42.074 E9.22385 F600.000
G1 X110.907 Y42.192 E9.25190
G1 X111.428 Y42.424 E9.27995
G1 X111.889 Y42.759 E9.30800
G1 X112.271 Y43.183 E9.33605
G1 X112.556 Y43.676 E9.36410
G1 X112.732 Y44.218 E9.39215
G1 X112.791 Y44.785 E9.42020
G1 X112.732 Y45.352 E9.44825
G1 X112.556 Y45.894 E9.47630
G1 X112.271 Y46.387 E9.50435
G1 X111.889 Y46.811 E9.53240
G1 X111.428 Y47.146 E9.56045
G1 X110.907 Y47.378 E9.58850
G1 X110.812 Y47.398 E9.59330
G1 X110.630 Y47.791 F9000.000
G1 E3.59330 F1800.00000
G92 E0
G1 X100.611 Y45.432 F9000.000
G1 E6.00000 F1800.00000
G1 X100.410 Y46.052 E6.03204 F600.000
G1 X100.084 Y46.615 E6.06408
G1 X99.649 Y47.099 E6.09612
G1 X99.122 Y47.482 E6.12816
G1 X98.527 Y47.747 E6.16019
G1 X97.891 Y47.882 E6.19223
G1 X97.239 Y47.882 E6.22427
G1 X96.603 Y47.747 E6.25631
G1 X96.008 Y47.482 E6.28835
G1 X95.481 Y47.099 E6.32039
G1 X95.046 Y46.615 E6.35243
G1 X94.717 Y46.047 E6.38476
G1 X94.513 Y45.375 E6.41932
G1 X94.451 Y44.785 E6.44850
G1 X94.519 Y44.138 E6.48053
G1 X94.720 Y43.518 E6.51257
G1 X95.046 Y42.955 E6.54461
G1 X95.481 Y42.471 E6.57665
G1 X96.008 Y42.088 E6.60869
G1 X96.603 Y41.823 E6.64073
G1 X97.239 Y41.688 E6.67277
G1 X97.891 Y41.688 E6.70481 F600.000
G1 X98.527 Y41.823 E6.73685
G1 X99.122 Y42.088 E6.76889
G1 X99.649 Y42.471 E6.80092
G1 X100.084 Y42.955 E6.83296
G1 X100.410 Y43.518 E6.86500
G1 X100.611 Y44.138 E6.89704
G1 X100.679 Y44.785 E6.92908
G1 X100.617 Y45.373 E6.95817
G1 X100.232 Y45.352 F9000.000
G1 X100.056 Y45.894 E6.98622 F600.000
G1 X99.771 Y46.387 E7.01427
G1 X99.389 Y46.811 E7.04231
G1 X98.928 Y47.146 E7.07036
G1 X98.407 Y47.378 E7.09841
G1 X97.850 Y47.496 E7.12646
G1 X97.280 Y47.496 E7.15451
G1 X96.723 Y47.378 E7.18256
G1 X96.202 Y47.146 E7.21061
G1 X95.741 Y46.811 E7.23866
G1 X95.359 Y46.387 E7.26671
G1 X95.073 Y45.892 E7.29487
G1 X94.893 Y45.298 E7.32544
G1 X94.839 Y44.785 E7.35081
G1 X94.898 Y44.218 E7.37886
G1 X95.074 Y43.676 E7.40691
G1 X95.359 Y43.183 E7.43496
G1 X95.741 Y42.759 E7.46301
G1 X96.202 Y42.424 E7.49106
