; generated by Slic3r 1.2.9 on 2020-05-02 at 10:46:20

; external perimeters extrusion width = 0.40mm
; perimeters extrusion width = 0.62mm
; infill extrusion width = 0.33mm
; solid infill extrusion width = 0.62mm
; top infill extrusion width = 0.20mm

M106 S256; Turn on fan to 100% power
M104 S140; turn on extruder temperature at S value
M140 S60; turn on bed temperature at S value
G28; home all axes
M84; disable motors
G1 Z15 F15000; have Z move to 20mm at 15000 mm/min
M190 S55; turn on bed temperature at S value and wait
M140 S55; turn on bed temperature at S value (printing temperature)
M109 S200; turn on extruder temperature at S value and wait (printing temperature)
M104 S200; turn on extruder temperature at S value
G1 Z0 F12000; move Z back to home
G21 ; set units to millimeters
G90 ; use absolute coordinates
M82 ; use absolute distances for extrusion
G92 E0
M106 S255
;Layer change
G1 E-6.00000 F1800.00000
G92 E0
G1 Z0.300 F9000.000
G1 X52.781 Y21.713 F9000.000
G1 E6.00000 F1800.00000
G1 X52.980 Y21.262 E6.02424 F600.000
G1 X53.297 Y20.714 E6.05540
G1 X53.590 Y20.310 E6.07998
G1 X54.010 Y19.844 E6.11084
G1 X54.380 Y19.511 E6.13534
G1 X54.888 Y19.142 E6.16624
G1 X55.320 Y18.893 E6.19078
G1 X55.890 Y18.639 E6.22149
G1 X56.367 Y18.483 E6.24619
G1 X56.980 Y18.353 E6.27706
G1 X57.352 Y18.304 E6.29550
G1 X57.665 Y18.288 E6.31095
G1 X133.790 Y18.284 E10.05743
G1 X134.039 Y18.297 E10.06972
G1 X134.663 Y18.363 E10.10059 F600.000
G1 X135.151 Y18.467 E10.12511
G1 X135.747 Y18.661 E10.15599
G1 X136.199 Y18.861 E10.18029
G1 X136.746 Y19.177 E10.21139
G1 X137.150 Y19.470 E10.23597
G1 X137.616 Y19.890 E10.26683
G1 X137.949 Y20.260 E10.29133
G1 X138.318 Y20.768 E10.32222
G1 X138.567 Y21.200 E10.34677
G1 X138.823 Y21.773 E10.37765
G1 X138.977 Y22.247 E10.40218
G1 X139.107 Y22.860 E10.43306
G1 X139.156 Y23.232 E10.45149
G1 X139.176 Y23.670 E10.47308
G1 X139.176 Y62.170 E12.36786
G1 X139.097 Y63.044 E12.41102
G1 X138.993 Y63.530 E12.43551
G1 X138.799 Y64.127 E12.46641
G1 X138.597 Y64.582 E12.49088
G1 X138.283 Y65.126 E12.52181
G1 X137.990 Y65.530 E12.54638
G1 X137.570 Y65.996 E12.57725
G1 X137.200 Y66.329 E12.60173
G1 X136.692 Y66.698 E12.63265
G1 X136.260 Y66.947 E12.65719
G1 X135.687 Y67.203 E12.68805
G1 X135.213 Y67.357 E12.71260
G1 X134.600 Y67.487 E12.74347
G1 X134.228 Y67.536 E12.76190
G1 X133.915 Y67.552 E12.77736
G1 X57.790 Y67.556 E16.52384
G1 X56.917 Y67.477 E16.56699
G1 X56.430 Y67.374 E16.59148
G1 X55.833 Y67.179 E16.62239
G1 X55.380 Y66.978 E16.64678
G1 X54.834 Y66.663 E16.67779
G1 X54.430 Y66.370 E16.70236
G1 X53.964 Y65.950 E16.73323
G1 X53.631 Y65.580 E16.75775
G1 X53.262 Y65.072 E16.78863
G1 X53.013 Y64.640 E16.81317
G1 X52.757 Y64.067 E16.84404
G1 X52.603 Y63.593 E16.86858
G1 X52.473 Y62.980 E16.89945
G1 X52.424 Y62.608 E16.91789
G1 X52.404 Y62.170 E16.93947
G1 X52.404 Y23.670 E18.83425
G1 X52.483 Y22.797 E18.87740
G1 X52.587 Y22.310 E18.90192
G1 X52.762 Y21.770 E18.92985
G1 E12.92985 F1800.00000
G92 E0
G1 X102.429 Y37.448 F9000.000
G1 E6.00000 F1800.00000
G1 X102.429 Y35.892 E6.07659 F600.000
G1 X104.171 Y35.117 E6.17039
G1 X105.356 Y34.255 E6.24252
G1 X106.337 Y33.166 E6.31466
G1 X107.070 Y31.897 E6.38679
G1 X107.423 Y30.809 E6.44305
G1 X109.157 Y30.809 E6.52838
G1 X109.510 Y31.897 E6.58464
G1 X109.787 Y32.377 E6.61192
G1 X109.978 Y32.292 E6.62217
G1 X109.657 Y31.306 E6.67318
G1 X109.551 Y30.295 E6.72322
G1 X109.657 Y29.284 E6.77326
G1 X109.971 Y28.317 E6.82331
G1 X110.480 Y27.436 E6.87335
G1 X111.160 Y26.680 E6.92340
G1 X111.983 Y26.083 E6.97344
G1 X112.879 Y25.684 E7.02173
G1 X113.904 Y25.458 E7.07338
G1 X114.923 Y25.458 E7.12354
G1 X115.918 Y25.669 E7.17358
G1 X116.847 Y26.083 E7.22363
G1 X117.670 Y26.680 E7.27367
G1 X118.350 Y27.436 E7.32372
G1 X118.859 Y28.317 E7.37376
G1 X119.173 Y29.284 E7.42381
G1 X119.279 Y30.295 E7.47385
G1 X119.173 Y31.306 E7.52389
G1 X118.859 Y32.273 E7.57394
G1 X118.350 Y33.154 E7.62398
G1 X117.670 Y33.910 E7.67403
G1 X116.847 Y34.507 E7.72407
G1 X115.918 Y34.921 E7.77412
G1 X114.923 Y35.132 E7.82416
G1 X113.907 Y35.132 E7.87420
G1 X112.912 Y34.921 E7.92425
G1 X111.983 Y34.507 E7.97429
G1 X111.250 Y33.975 E8.01888
G1 X111.111 Y34.130 E8.02913
G1 X111.224 Y34.255 E8.03745
G1 X112.409 Y35.117 E8.10958
G1 X114.151 Y35.892 E8.20338
G1 X114.151 Y37.448 E8.27997
G1 X113.094 Y37.919 E8.33690
G1 X113.158 Y38.117 E8.34716
G1 X113.907 Y37.958 E8.38482
G1 X114.923 Y37.958 E8.43486
G1 X115.918 Y38.169 E8.48490
G1 X116.758 Y38.543 E8.53017
G1 X116.863 Y38.363 E8.54042
G1 X116.671 Y38.223 E8.55210
G1 X114.929 Y37.448 E8.64590
G1 X114.929 Y35.892 E8.72249
G1 X116.671 Y35.117 E8.81629
G1 X117.856 Y34.255 E8.88842
G1 X118.837 Y33.166 E8.96056
G1 X119.570 Y31.897 E9.03269
G1 X119.923 Y30.809 E9.08896
G1 X121.657 Y30.809 E9.17428
G1 X122.010 Y31.897 E9.23055
G1 X122.287 Y32.377 E9.25782
G1 X122.478 Y32.292 E9.26808
G1 X122.157 Y31.306 E9.31908
G1 X122.051 Y30.295 E9.36913
G1 X122.157 Y29.284 E9.41917
G1 X122.471 Y28.317 E9.46921
G1 X122.980 Y27.436 E9.51926
G1 X123.660 Y26.680 E9.56931
G1 X124.483 Y26.083 E9.61935
G1 X125.412 Y25.669 E9.66939
G1 X126.407 Y25.458 E9.71944
G1 X127.423 Y25.458 E9.76948
G1 X128.418 Y25.669 E9.81952
G1 X129.347 Y26.083 E9.86957
G1 X130.170 Y26.680 E9.91961
G1 X130.850 Y27.436 E9.96966
G1 X131.359 Y28.317 E10.01970
G1 X131.673 Y29.284 E10.06975
G1 X131.779 Y30.295 E10.11979
G1 X131.673 Y31.306 E10.16983
G1 X131.359 Y32.273 E10.21988
G1 X130.850 Y33.154 E10.26992
G1 X130.170 Y33.910 E10.31997
G1 X129.347 Y34.507 E10.37001
G1 X128.418 Y34.921 E10.42006
G1 X127.423 Y35.132 E10.47010
G1 X126.407 Y35.132 E10.52014
G1 X125.412 Y34.921 E10.57019
G1 X124.483 Y34.507 E10.62023
G1 X123.750 Y33.975 E10.66482
G1 X123.611 Y34.130 E10.67507
G1 X123.724 Y34.255 E10.68339
G1 X124.909 Y35.117 E10.75552
G1 X126.651 Y35.892 E10.84932
G1 X126.651 Y37.448 E10.92591
G1 X125.594 Y37.919 E10.98284
G1 X125.658 Y38.117 E10.99310
G1 X126.407 Y37.958 E11.03076
G1 X127.423 Y37.958 E11.08080
G1 X128.418 Y38.169 E11.13084
G1 X129.347 Y38.583 E11.18089
G1 X130.170 Y39.180 E11.23093
G1 X130.850 Y39.936 E11.28097
G1 X131.359 Y40.817 E11.33102
G1 X131.673 Y41.784 E11.38106
G1 X131.779 Y42.795 E11.43111
G1 X131.673 Y43.806 E11.48115
G1 X131.359 Y44.773 E11.53120
G1 X130.850 Y45.654 E11.58124
G1 X130.170 Y46.410 E11.63129
G1 X129.347 Y47.007 E11.68133
G1 X128.418 Y47.421 E11.73138
G1 X127.423 Y47.632 E11.78142
G1 X126.407 Y47.632 E11.83146
G1 X125.412 Y47.421 E11.88151
G1 X124.483 Y47.007 E11.93155
G1 X123.750 Y46.475 E11.97614
G1 X123.611 Y46.630 E11.98639
G1 X123.724 Y46.755 E11.99471
G1 X124.909 Y47.617 E12.06684
G1 X126.651 Y48.392 E12.16064
G1 X126.651 Y49.948 E12.23723
G1 X125.594 Y50.419 E12.29416
G1 X125.658 Y50.617 E12.30442
G1 X126.407 Y50.458 E12.34208
G1 X127.423 Y50.458 E12.39212
G1 X128.418 Y50.669 E12.44216
G1 X129.347 Y51.083 E12.49221
G1 X130.170 Y51.680 E12.54225
G1 X130.850 Y52.436 E12.59229
G1 X131.359 Y53.317 E12.64234
G1 X131.673 Y54.284 E12.69238
G1 X131.779 Y55.295 E12.74243
G1 X131.673 Y56.306 E12.79247
G1 X131.359 Y57.273 E12.84251
G1 X130.850 Y58.154 E12.89256
G1 X130.170 Y58.910 E12.94261
G1 X129.347 Y59.507 E12.99265
G1 X128.451 Y59.906 E13.04094
G1 X127.426 Y60.132 E13.09259
G1 X126.407 Y60.132 E13.14274
G1 X125.412 Y59.921 E13.19279
G1 X124.483 Y59.507 E13.24283
G1 X123.660 Y58.910 E13.29288
G1 X122.980 Y58.154 E13.34292
G1 X122.471 Y57.273 E13.39297
G1 X122.157 Y56.306 E13.44301
G1 X122.051 Y55.295 E13.49306
G1 X122.157 Y54.284 E13.54310
G1 X122.292 Y53.870 E13.56453
G1 X122.102 Y53.785 E13.57478
G1 X122.010 Y53.943 E13.58378
G1 X121.657 Y55.031 E13.64004
G1 X119.923 Y55.031 E13.72537
G1 X119.570 Y53.943 E13.78163
G1 X118.837 Y52.674 E13.85376
G1 X118.529 Y52.332 E13.87639
G1 X118.361 Y52.455 E13.88665
G1 X118.859 Y53.317 E13.93563
G1 X119.173 Y54.284 E13.98567
G1 X119.279 Y55.295 E14.03571
G1 X119.173 Y56.306 E14.08576
G1 X118.859 Y57.273 E14.13580
G1 X118.350 Y58.154 E14.18585
G1 X117.670 Y58.910 E14.23589
G1 X116.847 Y59.507 E14.28593
G1 X115.918 Y59.921 E14.33598
G1 X114.923 Y60.132 E14.38603
G1 X113.907 Y60.132 E14.43606
G1 X112.912 Y59.921 E14.48611
G1 X111.983 Y59.507 E14.53615
G1 X111.160 Y58.910 E14.58620
G1 X110.480 Y58.154 E14.63624
G1 X109.971 Y57.273 E14.68629
G1 X109.657 Y56.306 E14.73633
G1 X109.551 Y55.295 E14.78638
G1 X109.657 Y54.284 E14.83642
G1 X109.792 Y53.870 E14.85785
G1 X109.602 Y53.785 E14.86810
G1 X109.510 Y53.943 E14.87710
G1 X109.157 Y55.031 E14.93336
G1 X107.423 Y55.031 E15.01869
G1 X107.070 Y53.943 E15.07495
G1 X106.337 Y52.674 E15.14708
G1 X106.029 Y52.332 E15.16971
G1 X105.861 Y52.455 E15.17996
G1 X106.359 Y53.317 E15.22894
G1 X106.673 Y54.284 E15.27898
G1 X106.779 Y55.295 E15.32903
G1 X106.673 Y56.306 E15.37907
G1 X106.359 Y57.273 E15.42911
G1 X105.850 Y58.154 E15.47916
G1 X105.170 Y58.910 E15.52921
G1 X104.347 Y59.507 E15.57925
G1 X103.418 Y59.921 E15.62929
G1 X102.423 Y60.132 E15.67934
G1 X101.407 Y60.132 E15.72938
G1 X100.412 Y59.921 E15.77942
G1 X99.483 Y59.507 E15.82947
G1 X98.660 Y58.910 E15.87951
G1 X97.980 Y58.154 E15.92956
G1 X97.470 Y57.271 E15.97972
G1 X97.154 Y56.271 E16.03137
G1 X97.051 Y55.298 E16.07953
G1 X97.146 Y54.320 E16.12787
G1 X97.292 Y53.870 E16.15116
G1 X97.101 Y53.785 E16.16141
G1 X97.010 Y53.943 E16.17040
G1 X96.657 Y55.031 E16.22667
G1 X94.923 Y55.031 E16.31199
G1 X94.570 Y53.943 E16.36826
G1 X93.837 Y52.674 E16.44039
G1 X93.529 Y52.332 E16.46301
G1 X93.361 Y52.455 E16.47327
G1 X93.858 Y53.317 E16.52224
G1 X94.173 Y54.284 E16.57228
G1 X94.279 Y55.295 E16.62233
G1 X94.173 Y56.306 E16.67237
G1 X93.858 Y57.273 E16.72241
G1 X93.350 Y58.154 E16.77246
G1 X92.670 Y58.910 E16.82250
G1 X91.847 Y59.507 E16.87255
G1 X90.918 Y59.921 E16.92259
G1 X89.923 Y60.132 E16.97264
G1 X88.907 Y60.132 E17.02268
G1 X87.912 Y59.921 E17.07272
G1 X86.983 Y59.507 E17.12277
G1 X86.160 Y58.910 E17.17281
G1 X85.480 Y58.154 E17.22286
G1 X84.971 Y57.273 E17.27290
G1 X84.657 Y56.306 E17.32295
G1 X84.551 Y55.295 E17.37299
G1 X84.657 Y54.284 E17.42303
G1 X84.792 Y53.870 E17.44446
G1 X84.602 Y53.785 E17.45471
G1 X84.510 Y53.943 E17.46371
G1 X84.157 Y55.031 E17.51998
G1 X82.423 Y55.031 E17.60530
G1 X82.070 Y53.943 E17.66157
G1 X81.337 Y52.674 E17.73370
G1 X81.029 Y52.332 E17.75633
G1 X80.861 Y52.455 E17.76658
G1 X81.359 Y53.317 E17.81556
G1 X81.673 Y54.284 E17.86560
G1 X81.779 Y55.295 E17.91565
G1 X81.673 Y56.306 E17.96569
G1 X81.359 Y57.273 E18.01573
G1 X80.850 Y58.154 E18.06578
G1 X80.170 Y58.910 E18.11583
G1 X79.347 Y59.507 E18.16587
G1 X78.418 Y59.921 E18.21591
G1 X77.423 Y60.132 E18.26596
G1 X76.407 Y60.132 E18.31600
G1 X75.412 Y59.921 E18.36604
G1 X74.483 Y59.507 E18.41609
G1 X73.660 Y58.910 E18.46613
G1 X72.980 Y58.154 E18.51618
G1 X72.471 Y57.273 E18.56622
G1 X72.157 Y56.306 E18.61627
G1 X72.051 Y55.295 E18.66631
G1 X72.157 Y54.284 E18.71635
G1 X72.292 Y53.870 E18.73778
G1 X72.102 Y53.785 E18.74803
G1 X72.010 Y53.943 E18.75703
G1 X71.657 Y55.031 E18.81330
G1 X69.923 Y55.031 E18.89862
G1 X69.570 Y53.943 E18.95489
G1 X68.837 Y52.674 E19.02702
G1 X68.529 Y52.332 E19.04965
G1 X68.361 Y52.455 E19.05990
G1 X68.859 Y53.317 E19.10888
G1 X69.173 Y54.284 E19.15893
G1 X69.279 Y55.295 E19.20897
G1 X69.173 Y56.306 E19.25901
G1 X68.859 Y57.273 E19.30905
G1 X68.350 Y58.154 E19.35910
G1 X67.670 Y58.910 E19.40915
G1 X66.847 Y59.507 E19.45919
G1 X65.918 Y59.921 E19.50924
G1 X64.923 Y60.132 E19.55928
G1 X63.907 Y60.132 E19.60932
G1 X62.912 Y59.921 E19.65936
G1 X61.983 Y59.507 E19.70941
G1 X61.160 Y58.910 E19.75945
G1 X60.480 Y58.154 E19.80950
G1 X59.971 Y57.273 E19.85955
G1 X59.657 Y56.306 E19.90959
G1 X59.551 Y55.295 E19.95963
G1 X59.657 Y54.284 E20.00967
G1 X59.971 Y53.317 E20.05972
G1 X60.480 Y52.436 E20.10977
G1 X61.160 Y51.680 E20.15981
G1 X61.983 Y51.083 E20.20985
G1 X62.912 Y50.669 E20.25990
G1 X63.907 Y50.458 E20.30994
G1 X64.923 Y50.458 E20.35998
G1 X65.918 Y50.669 E20.41003
G1 X66.758 Y51.043 E20.45530
G1 X66.863 Y50.863 E20.46555
G1 X66.671 Y50.723 E20.47723
G1 X64.929 Y49.948 E20.57103
G1 X64.929 Y48.392 E20.64762
G1 X66.671 Y47.617 E20.74142
G1 X67.856 Y46.755 E20.81355
G1 X68.837 Y45.666 E20.88569
G1 X69.570 Y44.397 E20.95782
G1 X69.923 Y43.309 E21.01408
G1 X71.657 Y43.309 E21.09941
G1 X72.010 Y44.397 E21.15567
G1 X72.287 Y44.877 E21.18295
G1 X72.478 Y44.792 E21.19320
G1 X72.157 Y43.806 E21.24420
G1 X72.051 Y42.795 E21.29424
G1 X72.157 Y41.784 E21.34429
G1 X72.292 Y41.370 E21.36571
G1 X72.101 Y41.285 E21.37596
G1 X72.010 Y41.443 E21.38496
G1 X71.657 Y42.531 E21.44122
G1 X69.923 Y42.531 E21.52654
G1 X69.570 Y41.443 E21.58281
G1 X68.837 Y40.174 E21.65494
G1 X68.529 Y39.832 E21.67757
G1 X68.361 Y39.955 E21.68782
G1 X68.859 Y40.817 E21.73680
G1 X69.173 Y41.784 E21.78685
G1 X69.279 Y42.795 E21.83689
G1 X69.173 Y43.806 E21.88693
G1 X68.859 Y44.773 E21.93698
G1 X68.350 Y45.654 E21.98702
G1 X67.670 Y46.410 E22.03707
G1 X66.847 Y47.007 E22.08711
G1 X65.918 Y47.421 E22.13716
G1 X64.923 Y47.632 E22.18720
G1 X63.907 Y47.632 E22.23724
G1 X62.912 Y47.421 E22.28729
G1 X61.983 Y47.007 E22.33733
G1 X61.160 Y46.410 E22.38738
G1 X60.480 Y45.654 E22.43742
G1 X59.971 Y44.773 E22.48747
G1 X59.657 Y43.806 E22.53751
G1 X59.551 Y42.795 E22.58755
G1 X59.657 Y41.784 E22.63760
G1 X59.971 Y40.817 E22.68764
G1 X60.480 Y39.936 E22.73769
G1 X61.160 Y39.180 E22.78773
G1 X61.983 Y38.583 E22.83778
G1 X62.912 Y38.169 E22.88782
G1 X63.907 Y37.958 E22.93787
G1 X64.923 Y37.958 E22.98791
G1 X65.918 Y38.169 E23.03795
G1 X66.758 Y38.543 E23.08322
G1 X66.863 Y38.363 E23.09347
G1 X66.671 Y38.223 E23.10515
G1 X64.929 Y37.448 E23.19895
G1 X64.929 Y35.892 E23.27554
G1 X66.671 Y35.117 E23.36934
G1 X67.856 Y34.255 E23.44147
G1 X68.837 Y33.166 E23.51361
G1 X69.570 Y31.897 E23.58574
G1 X69.923 Y30.809 E23.64201
G1 X71.657 Y30.809 E23.72733
G1 X72.010 Y31.897 E23.78360
G1 X72.287 Y32.377 E23.81087
G1 X72.478 Y32.292 E23.82113
G1 X72.157 Y31.306 E23.87213
G1 X72.051 Y30.295 E23.92218
G1 X72.157 Y29.284 E23.97222
G1 X72.471 Y28.317 E24.02226
G1 X72.980 Y27.436 E24.07231
G1 X73.660 Y26.680 E24.12235
G1 X74.483 Y26.083 E24.17240
G1 X75.412 Y25.669 E24.22244
G1 X76.407 Y25.458 E24.27249
G1 X77.423 Y25.458 E24.32253
G1 X78.418 Y25.669 E24.37257
G1 X79.347 Y26.083 E24.42262
G1 X80.170 Y26.680 E24.47266
G1 X80.850 Y27.436 E24.52271
G1 X81.359 Y28.317 E24.57275
G1 X81.673 Y29.284 E24.62280
G1 X81.779 Y30.295 E24.67284
G1 X81.673 Y31.306 E24.72288
G1 X81.359 Y32.273 E24.77293
G1 X80.850 Y33.154 E24.82297
G1 X80.170 Y33.910 E24.87302
G1 X79.347 Y34.507 E24.92306
G1 X78.418 Y34.921 E24.97311
G1 X77.423 Y35.132 E25.02315
G1 X76.407 Y35.132 E25.07319
G1 X75.412 Y34.921 E25.12324
G1 X74.483 Y34.507 E25.17328
G1 X73.750 Y33.975 E25.21787
G1 X73.611 Y34.130 E25.22812
G1 X73.724 Y34.255 E25.23644
G1 X74.909 Y35.117 E25.30857
G1 X76.651 Y35.892 E25.40237
G1 X76.651 Y37.448 E25.47896
G1 X75.594 Y37.919 E25.53589
G1 X75.658 Y38.117 E25.54615
G1 X76.407 Y37.958 E25.58380
G1 X77.423 Y37.958 E25.63384
G1 X78.418 Y38.169 E25.68389
G1 X79.258 Y38.543 E25.72916
G1 X79.363 Y38.363 E25.73941
G1 X79.171 Y38.223 E25.75109
G1 X77.429 Y37.448 E25.84489
G1 X77.429 Y35.892 E25.92148
G1 X79.171 Y35.117 E26.01528
G1 X80.356 Y34.255 E26.08741
G1 X81.337 Y33.166 E26.15955
G1 X82.070 Y31.897 E26.23168
G1 X82.423 Y30.809 E26.28795
G1 X84.157 Y30.809 E26.37327
G1 X84.510 Y31.897 E26.42954
G1 X84.787 Y32.377 E26.45681
G1 X84.978 Y32.292 E26.46707
G1 X84.657 Y31.306 E26.51807
G1 X84.551 Y30.295 E26.56812
G1 X84.657 Y29.284 E26.61816
G1 X84.971 Y28.317 E26.66820
G1 X85.480 Y27.436 E26.71825
G1 X86.160 Y26.680 E26.76829
G1 X86.983 Y26.083 E26.81834
G1 X87.912 Y25.669 E26.86838
G1 X88.907 Y25.458 E26.91843
G1 X89.923 Y25.458 E26.96847
G1 X90.918 Y25.669 E27.01851
G1 X91.847 Y26.083 E27.06856
G1 X92.670 Y26.680 E27.11860
G1 X93.350 Y27.436 E27.16865
G1 X93.858 Y28.317 E27.21869
G1 X94.173 Y29.284 E27.26874
G1 X94.279 Y30.292 E27.31865
G1 X94.184 Y31.270 E27.36699
G1 X93.858 Y32.273 E27.41891
G1 X93.350 Y33.154 E27.46895
G1 X92.670 Y33.910 E27.51900
G1 X91.847 Y34.507 E27.56904
G1 X90.918 Y34.921 E27.61909
G1 X89.923 Y35.132 E27.66913
G1 X88.907 Y35.132 E27.71917
G1 X87.912 Y34.921 E27.76922
G1 X86.983 Y34.507 E27.81926
